(File created: Tuesday November 18 2025 - 02:24 PM)
(for Carvera from Vectric)
(VECTRIC POST REVISION)
(AA6001CAC4E9696A3EC4F9B49CBCFB6D)
G90G54
G17
G21

T1M6
G0Z20.320
G0X0.000Y0.000
S10000M3
G0X63.460Y0.001
G0Z5.080
G1Z-1.000F300.0
G1X0.040F1000.0
X0.004Y0.004
X0.000Y0.058
Y2.224
X63.500
Y4.446
X0.000
Y6.669
X63.500
Y8.891
X0.000
Y11.114
X63.500
Y13.336
X0.000
Y15.559
X63.500
Y17.781
X0.000
Y20.004
X63.500
Y22.226
X0.000
Y24.449
X63.500
Y26.671
X0.000
Y28.894
X63.500
Y31.116
X0.000
Y33.339
X63.500
Y35.561
X0.000
Y37.784
X63.500
Y40.006
X0.000
Y42.229
X63.500
Y44.451
X0.000
Y46.674
X63.500
Y48.896
X0.000
Y51.119
X63.500
Y53.341
X0.000
Y55.564
X63.500
Y57.786
X0.000
Y60.009
X63.500
Y62.231
X0.000
Y64.454
X4.618
X4.552Y64.520
X4.477Y64.595
X4.360Y64.716
X4.256Y64.850
X4.168Y64.994
X3.983
X3.779Y65.007
X3.577Y65.046
X3.382Y65.112
X3.199Y65.201
X3.007Y65.300
X2.831Y65.425
X2.673Y65.572
X2.598Y65.647
X2.452Y65.803
X2.327Y65.980
X2.226Y66.175
X2.153Y66.381
X2.109Y66.594
X2.104Y66.676
X0.000
Y68.899
X2.109
X2.138Y68.987
X2.240Y69.191
X2.369Y69.379
X2.523Y69.544
X2.598Y69.619
X2.673Y69.694
X2.748Y69.770
X2.823Y69.845
X2.899Y69.920
X2.974Y69.995
X3.131Y70.142
X3.308Y70.267
X3.499Y70.366
X3.519Y70.377
X3.672Y70.485
X3.836Y70.574
X3.958Y70.744
X4.101Y70.897
X4.176Y70.972
X4.334Y71.119
X4.337Y71.121
X0.000
Y73.344
X7.350
X7.407Y73.372
X7.557Y73.447
X7.560Y73.449
X7.562Y73.452
X7.637Y73.602
X7.737Y73.794
X7.862Y73.971
X8.009Y74.128
X8.084Y74.203
X8.241Y74.350
X8.418Y74.475
X8.609Y74.574
X8.613Y74.576
X8.747Y74.777
X8.910Y74.955
X8.985Y75.030
X9.061Y75.105
X9.136Y75.180
X9.211Y75.255
X9.382Y75.413
X9.575Y75.545
X9.601Y75.566
X0.000
Y77.789
G0Z5.080
G0X8.078Y64.454
G1Z-1.000F300.0
G1X63.500F1000.0
Y66.676
X13.083
X13.108Y66.699
X13.183Y66.774
X13.330Y66.932
X13.455Y67.109
X13.554Y67.300
X13.647Y67.493
X13.713Y67.696
X13.781Y67.894
X13.823Y68.100
X13.837Y68.309
Y68.610
X13.826Y68.791
X13.808Y68.899
X63.500
Y71.121
X13.296
X13.384Y71.248
X13.479Y71.433
X13.554Y71.583
X13.629Y71.734
X13.729Y71.943
X13.797Y72.167
X13.832Y72.397
X13.876Y72.559
X13.903Y72.725
X13.912Y72.893
Y73.016
X14.080Y73.312
X14.096Y73.344
X63.500
Y75.566
X14.229
G0Z5.080
G0X0.000Y77.789
G1Z-1.000F300.0
G1X63.500F1000.0
Y80.011
X0.000
Y82.234
X63.500
Y84.456
X0.000
Y86.678
X63.500
Y88.842
X63.496Y88.896
X63.460Y88.899
X0.040
G0Z5.080
G0X0.000Y0.058
G1Z-1.000F300.0
G1X0.004Y0.004F1000.0
X0.058Y0.000
X63.442
X63.496Y0.004
X63.500Y0.058
Y88.842
X63.496Y88.896
X63.442Y88.900
X0.058
X0.004Y88.896
X0.000Y88.842
Y0.058
G0Z5.080
G0X3.199Y65.201
G1Z-1.000F300.0
G2X2.673Y65.572I0.634J1.455F1000.0
G1X2.598Y65.647
G2X2.095Y66.807I1.084J1.159
G1Y66.959
G2X1.944Y67.633I1.437J0.674
G1Y68.159
G2X2.068Y68.772I1.588J0.000
G2X2.523Y69.544I1.539J-0.388
G1X2.598Y69.619
X2.673Y69.694
X2.748Y69.770
X2.823Y69.845
X2.899Y69.920
X2.974Y69.995
G2X3.499Y70.366I1.159J-1.084
G1X3.519Y70.377
X3.836Y70.574
X4.101Y70.897
X4.176Y70.972
G2X4.702Y71.343I1.159J-1.084
G1X4.852Y71.418
X5.227Y71.572
X5.517Y71.787
X5.818Y72.013
G2X6.280Y72.320I1.096J-1.148
G1X6.283Y72.322
X6.424Y72.531
G2X6.731Y72.926I1.391J-0.765
G2X7.257Y73.297I1.159J-1.084
G1X7.407Y73.372
X7.557Y73.447
X7.560Y73.449
X7.562Y73.452
X7.637Y73.602
G2X8.009Y74.128I1.455J-0.634
G1X8.084Y74.203
G2X8.609Y74.574I1.159J-1.084
G1X8.613Y74.576
G2X8.910Y74.955I1.382J-0.781
G1X8.985Y75.030
X9.061Y75.105
X9.136Y75.180
X9.211Y75.255
G2X9.575Y75.545I1.159J-1.084
G1X9.906Y75.788
X10.104Y75.922
X10.188Y76.007
X10.263Y76.082
X10.338Y76.157
X10.413Y76.232
G2X10.808Y76.539I1.159J-1.084
G2X11.565Y76.869I0.990J-1.241
G2X12.099Y76.961I0.533J-1.495
G1X12.475
G2X13.634Y76.458I0.000J-1.588
G1X13.709Y76.383
X13.784Y76.307
G2X14.239Y75.536I-1.084J-1.159
G2X14.363Y74.922I-1.464J-0.613
G1Y74.246
G2X14.155Y73.462I-1.588J0.000
G1X14.080Y73.312
X13.912Y73.016
Y72.893
G2X13.832Y72.397I-1.588J0.000
G2X13.629Y71.734I-1.583J0.121
G1X13.554Y71.583
X13.479Y71.433
X13.265Y71.077
X13.114Y70.851
X12.990Y70.660
X13.103Y70.446
X13.179Y70.296
X13.189Y70.276
X13.340Y70.051
X13.554Y69.695
G2X13.744Y69.144I-1.380J-0.784
G2X13.837Y68.610I-1.495J-0.533
G1Y68.309
G2X13.713Y67.696I-1.588J0.000
G1X13.554Y67.300
G2X13.183Y66.774I-1.455J0.634
G1X13.108Y66.699
G2X12.336Y66.244I-1.159J1.084
G2X11.723Y66.121I-0.613J1.464
G1X11.047
G2X10.553Y66.200I0.000J1.587
G1X10.446Y66.196
X10.248
X10.083Y66.092
G2X9.564Y65.816I-0.990J1.241
G1X9.507Y65.741
G2X9.200Y65.346I-1.391J0.765
G1X9.125Y65.271
X9.050Y65.196
X8.975Y65.121
X8.900Y65.046
G2X8.505Y64.739I-1.159J1.084
G1X8.279Y64.589
X7.923Y64.374
X7.773Y64.299
X7.623Y64.224
X7.472Y64.149
X7.322Y64.074
G2X6.538Y63.866I-0.784J1.380
G1X6.012
G2X5.399Y63.990I0.000J1.588
G2X4.627Y64.445I0.388J1.539
G1X4.552Y64.520
X4.477Y64.595
G2X4.168Y64.994I1.084J1.159
G1X3.983
G2X3.199Y65.201I0.000J1.588
G0Z5.080
G0X63.460Y0.001
G1Z-2.000F300.0
G1X0.040F1000.0
X0.004Y0.004
X0.000Y0.058
Y2.224
X63.500
Y4.446
X0.000
Y6.669
X63.500
Y8.891
X0.000
Y11.114
X63.500
Y13.336
X0.000
Y15.559
X63.500
Y17.781
X0.000
Y20.004
X63.500
Y22.226
X0.000
Y24.449
X63.500
Y26.671
X0.000
Y28.894
X63.500
Y31.116
X0.000
Y33.339
X63.500
Y35.561
X0.000
Y37.784
X63.500
Y40.006
X0.000
Y42.229
X63.500
Y44.451
X0.000
Y46.674
X63.500
Y48.896
X0.000
Y51.119
X63.500
Y53.341
X0.000
Y55.564
X63.500
Y57.786
X0.000
Y60.009
X11.112
Y60.344
X11.127Y60.556
X11.171Y60.769
X11.244Y60.976
X11.345Y61.170
X11.470Y61.348
X11.616Y61.503
X11.691Y61.578
X11.766Y61.654
X11.841Y61.729
X11.916Y61.804
X12.074Y61.951
X12.251Y62.076
X12.442Y62.175
X12.515Y62.214
X12.530Y62.231
G0Z5.080
G0X16.858Y60.009
G1Z-2.000F300.0
G1X63.500F1000.0
Y62.231
X16.363
X16.339Y62.255
X16.264Y62.330
X16.189Y62.405
X16.114Y62.480
X16.039Y62.555
X15.881Y62.702
X15.704Y62.827
X15.513Y62.926
X15.363Y63.002
X15.179Y63.091
X14.984Y63.156
X14.782Y63.196
X14.579Y63.209
X14.353
X14.144Y63.195
X13.938Y63.154
X13.740Y63.086
X13.536Y63.019
X13.344Y62.926
X13.152Y62.827
X12.976Y62.702
X12.818Y62.555
X12.743Y62.480
X12.530Y62.231
X0.000
Y64.454
G0Z5.080
G0X12.530Y62.231
G1Z-2.000F300.0
G1X0.000F1000.0
Y64.454
X1.267
G0Z5.080
G0X0.000
G1Z-2.000F300.0
G1X1.267F1000.0
X1.316Y64.314
X1.387Y64.100
X1.488Y63.896
X1.618Y63.708
X1.771Y63.543
X1.846Y63.468
X1.922Y63.393
X2.077Y63.247
X2.254Y63.122
X2.449Y63.021
X2.656Y62.947
X2.868Y62.904
X3.081Y62.889
X3.607
X3.811Y62.903
X4.013Y62.942
X4.208Y63.007
X4.391Y63.097
X4.582Y63.196
X4.759Y63.321
X4.917Y63.468
X4.998Y63.549
X5.002Y63.547
X5.153Y63.472
X5.336Y63.383
X5.531Y63.318
X5.733Y63.278
X5.937Y63.265
X6.388
X6.597Y63.279
X6.803Y63.320
X7.001Y63.388
X7.215Y63.459
X7.418Y63.559
X7.603Y63.687
X7.829Y63.837
X7.848Y63.848
X7.998Y63.923
X8.149Y63.998
X8.334Y64.094
X8.505Y64.213
X8.730Y64.363
X8.872Y64.451
X8.876Y64.454
X63.500
Y66.676
X14.181
X14.255Y66.833
X14.323Y67.057
X14.358Y67.287
X14.402Y67.449
X14.429Y67.615
X14.438Y67.783
Y68.009
X14.427Y68.190
X14.396Y68.369
X14.345Y68.542
X14.304Y68.736
X14.248Y68.899
X63.500
Y71.121
X13.573
X13.609Y71.173
X13.705Y71.358
X13.780Y71.508
X13.873Y71.701
X13.939Y71.904
X14.007Y72.103
X14.048Y72.309
X14.062Y72.518
Y72.715
X14.166Y72.880
X14.292Y73.063
X14.392Y73.263
X14.419Y73.344
X63.500
Y75.566
X16.109
X16.186Y75.649
X16.311Y75.826
X16.410Y76.017
X16.421Y76.037
X16.571Y76.262
X16.721Y76.487
X16.872Y76.713
X16.992Y76.887
X17.090Y77.078
X17.161Y77.281
X17.204Y77.492
X17.218Y77.703
Y77.789
X63.500
Y80.011
X16.372
X16.230Y80.111
X16.039Y80.211
X15.856Y80.300
X15.661Y80.365
X15.459Y80.405
X15.255Y80.418
X14.579
X14.367Y80.404
X14.157Y80.361
X13.954Y80.289
X13.763Y80.192
X13.589Y80.071
X13.492Y80.011
G0Z5.080
G0X0.750Y68.899
G1Z-2.000F300.0
G1X0.000F1000.0
Y71.121
X3.880
X3.951Y71.197
X4.071Y71.313
X4.203Y71.416
X4.345Y71.504
X4.516Y71.623
X4.702Y71.719
X4.976Y71.842
X5.247Y72.030
X5.442Y72.163
X5.454Y72.174
X5.529Y72.249
X5.700Y72.408
X5.893Y72.539
X6.027Y72.653
X6.205Y72.851
X6.280Y72.926
X6.355Y73.001
X6.430Y73.076
X6.506Y73.151
X6.581Y73.226
X6.656Y73.301
X6.698Y73.344
X0.000
Y75.566
X9.146
X9.211Y75.631
X9.286Y75.706
X9.361Y75.781
X9.436Y75.857
X9.572Y75.985
X9.723Y76.098
X9.885Y76.191
X10.113Y76.458
X10.188Y76.533
X10.263Y76.608
X10.434Y76.766
X10.627Y76.897
X10.639Y76.909
X10.714Y76.984
X10.871Y77.131
X11.048Y77.256
X11.240Y77.355
X11.390Y77.430
X11.429Y77.451
X11.616Y77.660
X11.691Y77.735
X11.744Y77.789
X0.000
Y80.011
X13.492
G0Z5.080
G0X0.000Y82.234
G1Z-2.000F300.0
G1X63.500F1000.0
Y84.456
X0.000
Y86.678
X63.500
Y88.842
X63.496Y88.896
X63.460Y88.899
X0.040
G0Z5.080
G0X0.000Y0.058
G1Z-2.000F300.0
G1X0.004Y0.004F1000.0
X0.058Y0.000
X63.442
X63.496Y0.004
X63.500Y0.058
Y88.842
X63.496Y88.896
X63.442Y88.900
X0.058
X0.004Y88.896
X0.000Y88.842
Y67.919
G2X0.419Y68.567I1.503J-0.511
G1X0.494Y68.642
X0.569Y68.717
X0.644Y68.793
X0.719Y68.868
X0.794Y68.943
X0.870Y69.018
X0.945Y69.093
X1.020Y69.168
X1.095Y69.243
X1.170Y69.319
G2X1.534Y69.608I1.159J-1.084
G1X1.546Y69.619
G2X1.941Y69.926I1.159J-1.084
G1X2.166Y70.076
G2X2.867Y70.397I0.990J-1.241
G1X3.199Y70.592
X3.349Y70.667
X3.499Y70.742
X3.519Y70.753
X3.681Y70.866
X3.951Y71.197
G2X4.345Y71.504I1.159J-1.084
G1X4.702Y71.719
X4.976Y71.842
X5.247Y72.030
X5.442Y72.163
X5.454Y72.174
X5.529Y72.249
G2X5.893Y72.539I1.159J-1.084
G1X6.027Y72.653
X6.205Y72.851
X6.280Y72.926
X6.355Y73.001
X6.430Y73.076
X6.506Y73.151
X6.581Y73.226
X6.656Y73.301
X6.731Y73.377
G2X7.257Y73.748I1.159J-1.084
G1X7.260Y73.750
G2X7.558Y74.128I1.382J-0.781
G1X7.633Y74.203
X7.708Y74.278
X7.783Y74.354
X7.858Y74.429
X7.933Y74.504
X8.009Y74.579
G2X8.528Y74.947I1.159J-1.084
G1X8.610Y75.030
X8.685Y75.105
X8.760Y75.180
X8.835Y75.255
X8.910Y75.330
X8.985Y75.406
X9.061Y75.481
X9.136Y75.556
X9.211Y75.631
X9.286Y75.706
X9.361Y75.781
X9.436Y75.857
G2X9.885Y76.191I1.159J-1.084
G1X10.113Y76.458
X10.188Y76.533
X10.263Y76.608
G2X10.627Y76.897I1.159J-1.084
G1X10.639Y76.909
X10.714Y76.984
G2X11.240Y77.355I1.159J-1.084
G1X11.390Y77.430
X11.429Y77.451
X11.616Y77.660
X11.691Y77.735
X11.766Y77.810
X11.774Y77.819
X11.846Y77.961
X11.921Y78.111
X12.135Y78.468
X12.286Y78.693
G2X12.593Y79.088I1.391J-0.765
G1X12.604Y79.100
G2X12.893Y79.464I1.374J-0.796
G1X12.968Y79.539
X13.043Y79.614
X13.119Y79.689
X13.194Y79.764
G2X13.589Y80.071I1.159J-1.084
G2X14.579Y80.418I0.990J-1.241
G1X15.255
G2X16.039Y80.211I0.000J-1.587
G2X16.565Y79.839I-0.634J-1.455
G1X16.640Y79.764
G2X17.011Y79.239I-1.084J-1.159
G2X17.218Y78.454I-1.380J-0.784
G1Y77.703
G2X16.872Y76.713I-1.588J0.000
G1X16.721Y76.487
X16.571Y76.262
X16.421Y76.037
X16.410Y76.017
G2X16.039Y75.491I-1.455J0.634
G1X15.964Y75.416
X15.888Y75.341
X15.813Y75.266
X15.738Y75.191
X15.663Y75.116
X15.588Y75.041
G2X15.062Y74.669I-1.159J1.084
G1X15.043Y74.658
X14.817Y74.508
X14.787Y74.485
X14.690Y74.159
X14.646Y74.013
G2X14.463Y73.474I-1.570J0.233
G2X14.166Y72.880I-1.537J0.397
G1X14.062Y72.715
Y72.518
G2X13.939Y71.904I-1.588J0.000
G1X13.780Y71.508
X13.705Y71.358
X13.490Y71.002
X13.340Y70.776
X13.264Y70.653
X13.325Y70.530
X13.333Y70.521
G2X13.640Y70.126I-1.084J-1.159
G1X13.855Y69.770
X13.930Y69.620
X14.005Y69.469
X14.080Y69.319
X14.239Y68.923
X14.345Y68.542
G2X14.438Y68.009I-1.495J-0.533
G1Y67.783
G2X14.358Y67.287I-1.588J0.000
G2X14.155Y66.624I-1.583J0.121
G2X13.784Y66.098I-1.455J0.634
G1X13.709Y66.023
G2X13.184Y65.652I-1.159J1.084
G1X12.787Y65.493
G2X12.174Y65.369I-0.613J1.464
G1X11.873
G2X11.376Y65.449I0.000J1.588
G1X10.972Y65.534
G2X10.446Y65.444I-0.526J1.498
G1X10.370
X10.111Y65.466
X9.803Y65.348
X9.801Y65.346
X9.726Y65.271
X9.651Y65.196
X9.576Y65.121
X9.501Y65.046
X9.426Y64.971
X9.351Y64.896
X9.275Y64.820
X9.200Y64.745
X9.125Y64.670
G2X8.730Y64.363I-1.159J1.084
G1X8.505Y64.213
X8.149Y63.998
X7.998Y63.923
X7.848Y63.848
X7.829Y63.837
X7.603Y63.687
G2X7.001Y63.388I-0.990J1.241
G2X6.388Y63.265I-0.613J1.464
G1X5.937
G2X5.153Y63.472I0.000J1.587
G1X5.002Y63.547
X4.998Y63.549
X4.917Y63.468
G2X4.391Y63.097I-1.159J1.084
G2X3.607Y62.889I-0.784J1.380
G1X3.081
G2X1.922Y63.393I0.000J1.588
G1X1.846Y63.468
X1.771Y63.543
G2X1.316Y64.314I1.084J1.159
G1X1.258Y64.478
G2X0.794Y64.820I0.696J1.427
G1X0.719Y64.896
X0.644Y64.971
X0.569Y65.046
G2X0.198Y65.572I1.084J1.159
G1X0.041Y65.959
X0.000Y66.037
Y0.058
G0Z5.080
G0X16.993Y60.870
G1Z-2.000F300.0
G1Y60.644F1000.0
G2X16.786Y59.860I-1.588J0.000
G2X16.415Y59.335I-1.455J0.634
G1X16.339Y59.259
X16.264Y59.184
G2X15.739Y58.813I-1.159J1.084
G2X15.012Y58.607I-0.784J1.380
G2X14.536Y58.287I-1.109J1.136
G2X13.985Y58.097I-0.784J1.380
G2X13.451Y58.005I-0.533J1.495
G1X13.376
X13.339Y58.005
X13.301Y58.005
X13.001
G2X12.387Y58.128I0.000J1.588
G2X11.236Y59.280I0.388J1.539
G2X11.112Y59.893I1.464J0.613
G1Y60.344
G2X11.616Y61.503I1.588J0.000
G1X11.691Y61.578
X11.766Y61.654
X11.841Y61.729
X11.916Y61.804
G2X12.442Y62.175I1.159J-1.084
G1X12.515Y62.214
X12.743Y62.480
X12.818Y62.555
G2X13.344Y62.926I1.159J-1.084
G1X13.740Y63.086
G2X14.353Y63.209I0.613J-1.464
G1X14.579
G2X15.363Y63.002I0.000J-1.587
G1X15.513Y62.926
G2X16.039Y62.555I-0.634J-1.455
G1X16.114Y62.480
X16.189Y62.405
X16.264Y62.330
X16.339Y62.255
X16.415Y62.180
G2X16.786Y61.654I-1.084J-1.159
G2X16.993Y60.870I-1.380J-0.784
G0Z5.080
G0X63.460Y0.001
G1Z-3.000F300.0
G1X0.040F1000.0
X0.004Y0.004
X0.000Y0.058
Y2.224
X63.500
Y4.446
X0.000
Y6.669
X63.500
Y8.891
X0.000
Y11.114
X63.500
Y13.336
X0.000
Y15.559
X63.500
Y17.781
X0.000
Y20.004
X63.500
Y22.226
X0.000
Y24.449
X63.500
Y26.671
X0.000
Y28.894
X63.500
Y31.116
X0.000
Y33.339
X63.500
Y35.561
X0.000
Y37.784
X63.500
Y40.006
X0.000
Y42.229
X63.500
Y44.451
X0.000
Y46.674
X63.500
Y48.896
X0.000
Y51.119
X63.500
Y53.341
X0.000
Y55.564
X63.500
Y57.786
X14.961
X15.087Y57.851
X15.251Y57.962
X15.399Y58.092
X15.493Y58.128
X15.696Y58.194
X15.889Y58.287
X16.039Y58.362
X16.189Y58.437
X16.340Y58.513
X16.531Y58.612
X16.708Y58.737
X16.865Y58.884
X16.941Y58.959
X17.088Y59.116
X17.212Y59.293
X17.312Y59.485
X17.387Y59.635
X17.462Y59.785
X17.551Y59.969
X17.565Y60.009
X63.500
Y62.231
X17.113
X17.091Y62.255
X17.016Y62.330
X16.941Y62.405
X16.820Y62.521
X16.688Y62.624
X16.546Y62.712
X16.320Y62.862
X16.149Y62.981
X15.964Y63.077
X15.814Y63.152
X15.663Y63.227
X15.513Y63.302
X15.363Y63.377
X15.179Y63.467
X14.984Y63.532
X14.782Y63.571
X14.579Y63.585
X13.978
X13.769Y63.571
X13.562Y63.529
X13.364Y63.461
X13.150Y63.391
X12.946Y63.289
X12.758Y63.160
X12.593Y63.006
X12.517Y62.931
X12.442Y62.856
X12.367Y62.781
X12.358Y62.773
X12.216Y62.701
X12.031Y62.605
X11.860Y62.486
X11.635Y62.336
X11.493Y62.248
X11.471Y62.231
G0Z5.080
G0X9.089Y57.786
G1Z-3.000F300.0
G1X0.000F1000.0
Y60.009
X9.220
G0Z5.080
G0X11.471Y62.231
G1Z-3.000F300.0
G1X4.525F1000.0
X4.507Y62.219
X4.316Y62.120
X4.133Y62.030
X3.937Y61.965
X3.736Y61.926
X3.532Y61.912
X3.006
X2.797Y61.926
X2.591Y61.968
X2.393Y62.036
X2.179Y62.106
X1.976Y62.207
X1.940Y62.231
X0.000
G0Z5.080
G0X0.036Y68.899
G1Z-3.000F300.0
G1X0.000F1000.0
Y71.121
X3.574
X3.575Y71.122
X3.650Y71.197
X3.725Y71.272
X3.800Y71.348
X3.875Y71.423
X3.951Y71.498
X4.026Y71.573
X4.189Y71.725
X4.375Y71.854
X4.576Y71.955
X4.788Y72.026
X4.796Y72.030
X5.022Y72.181
X5.216Y72.313
X5.228Y72.325
X5.303Y72.400
X5.378Y72.475
X5.550Y72.633
X5.742Y72.764
X5.754Y72.775
X5.829Y72.851
X5.904Y72.926
X5.980Y73.001
X6.055Y73.076
X6.130Y73.151
X6.205Y73.226
X6.280Y73.301
X6.322Y73.344
X0.000
Y75.566
X8.770
X8.835Y75.631
X8.910Y75.706
X8.985Y75.781
X9.061Y75.857
X9.136Y75.932
X9.211Y76.007
X9.286Y76.082
X9.442Y76.228
X9.616Y76.351
X9.805Y76.450
X9.823Y76.469
X9.955Y76.662
X10.113Y76.833
X10.284Y76.992
X10.477Y77.123
X10.488Y77.134
X10.564Y77.209
X10.719Y77.355
X10.894Y77.479
X11.083Y77.577
X11.165Y77.660
X11.240Y77.735
X11.293Y77.789
X0.000
Y80.011
X12.990
G0Z5.080
G0X9.730Y64.454
G1Z-3.000F300.0
G1X12.450F1000.0
X12.592Y64.374
X12.776Y64.285
X12.971Y64.220
X13.173Y64.180
X13.376Y64.167
X13.827
X14.031Y64.180
X14.233Y64.220
X14.428Y64.285
X14.611Y64.374
X14.762Y64.449
X14.770Y64.454
X63.500
Y66.676
X16.016
Y67.032
X16.002Y67.241
X15.961Y67.447
X15.893Y67.645
X15.822Y67.859
X15.722Y68.062
X15.594Y68.247
X15.483Y68.422
X15.348Y68.582
X15.193Y68.724
X15.021Y68.844
X14.914Y68.899
X63.500
Y71.121
X13.849
X13.855Y71.132
X13.930Y71.283
X14.005Y71.433
X14.091Y71.608
X14.155Y71.793
X14.195Y71.984
X14.246Y72.158
X14.277Y72.337
X14.288Y72.518
Y72.640
X14.456Y72.936
X14.531Y73.086
X14.622Y73.275
X14.645Y73.344
X63.500
Y75.566
X16.388
X16.496Y75.736
X16.613Y75.903
X16.707Y76.084
X16.827Y76.226
X16.929Y76.381
X17.050Y76.523
X17.153Y76.678
X17.237Y76.844
X17.312Y76.994
X17.411Y77.204
X17.480Y77.427
X17.514Y77.657
X17.550Y77.789
X63.500
Y80.011
X16.844
X16.790Y80.065
X16.715Y80.140
X16.550Y80.293
X16.362Y80.423
X16.158Y80.524
X15.944Y80.595
X15.745Y80.663
X15.539Y80.704
X15.330Y80.718
X14.504
X14.300Y80.705
X14.098Y80.666
X13.903Y80.600
X13.719Y80.511
X13.569Y80.436
X13.378Y80.337
X13.201Y80.212
X13.043Y80.065
X12.990Y80.011
G0Z5.080
G0X0.000Y82.234
G1Z-3.000F300.0
G1X63.500F1000.0
Y84.456
X0.000
Y86.678
X63.500
Y88.842
X63.496Y88.896
X63.460Y88.899
X0.040
G0Z5.080
G0X16.340Y58.513
G1Z-3.000F300.0
G1X16.189Y58.437F1000.0
X16.039Y58.362
X15.889Y58.287
X15.493Y58.128
X15.399Y58.092
G2X14.912Y57.761I-1.121J1.124
G1X14.762Y57.686
X14.611Y57.611
X14.224Y57.454
X13.839Y57.301
G2X13.347Y57.183I-0.613J1.464
G1X13.083Y57.120
X12.671Y57.033
X12.407Y56.970
G2X11.950Y56.879I-0.533J1.495
G2X11.272Y56.727I-0.678J1.435
G1X10.671
G2X9.512Y57.230I0.000J1.587
G1X9.436Y57.306
G2X9.065Y57.831I1.084J1.159
G2X8.858Y58.615I1.380J0.784
G1Y58.841
G2X8.981Y59.454I1.588J0.000
G1X9.140Y59.850
X9.216Y60.001
X9.430Y60.357
G2X9.737Y60.752I1.391J-0.765
G1X9.812Y60.827
X9.887Y60.902
X9.962Y60.977
X10.038Y61.052
X10.113Y61.128
G2X10.477Y61.417I1.159J-1.084
G1X10.488Y61.428
G2X10.852Y61.718I1.159J-1.084
G1X10.864Y61.729
G2X11.228Y62.018I1.159J-1.084
G1X11.240Y62.029
G2X11.635Y62.336I1.159J-1.084
G1X11.860Y62.486
X12.216Y62.701
X12.358Y62.773
X12.367Y62.781
X12.442Y62.856
X12.517Y62.931
X12.593Y63.006
G2X13.364Y63.461I1.159J-1.084
G2X13.978Y63.585I0.613J-1.464
G1X14.579
G2X15.363Y63.377I0.000J-1.588
G1X15.513Y63.302
X15.663Y63.227
X15.814Y63.152
X15.964Y63.077
X16.320Y62.862
X16.546Y62.712
G2X16.941Y62.405I-0.765J-1.391
G1X17.016Y62.330
X17.091Y62.255
G2X17.462Y61.729I-1.084J-1.159
G2X17.669Y60.945I-1.380J-0.784
G1Y60.569
G2X17.462Y59.785I-1.588J0.000
G1X17.387Y59.635
X17.312Y59.485
G2X16.941Y58.959I-1.455J0.634
G1X16.865Y58.884
G2X16.340Y58.513I-1.159J1.084
G0Z5.080
G0X0.004Y0.004
G1Z-3.000F300.0
G1X0.058Y0.000F1000.0
X63.442
X63.496Y0.004
X63.500Y0.058
Y88.842
X63.496Y88.896
X63.442Y88.900
X0.058
X0.004Y88.896
X0.000Y88.842
Y68.881
X0.109Y68.935
X0.118Y68.943
X0.193Y69.018
G2X0.588Y69.325I1.159J-1.084
G1X0.936Y69.536
X0.945Y69.544
G2X1.462Y69.912I1.159J-1.084
G1X1.471Y69.920
G2X1.835Y70.209I1.159J-1.084
G2X2.297Y70.516I1.096J-1.148
G2X2.836Y70.705I0.784J-1.380
G1X2.918Y70.753
G2X3.432Y71.026I0.990J-1.241
G1X3.563Y71.111
X3.575Y71.122
X3.650Y71.197
X3.725Y71.272
X3.800Y71.348
X3.875Y71.423
X3.951Y71.498
X4.026Y71.573
G2X4.788Y72.026I1.159J-1.084
G1X4.796Y72.030
X5.022Y72.181
X5.216Y72.313
X5.228Y72.325
X5.303Y72.400
X5.378Y72.475
G2X5.742Y72.764I1.159J-1.084
G1X5.754Y72.775
X5.829Y72.851
X5.904Y72.926
X5.980Y73.001
X6.055Y73.076
X6.130Y73.151
X6.205Y73.226
X6.280Y73.301
X6.355Y73.377
G2X6.750Y73.684I1.159J-1.084
G1X7.106Y73.898
X7.110Y73.900
X7.251Y74.109
G2X7.558Y74.504I1.391J-0.765
G2X7.922Y74.793I1.159J-1.084
G1X7.933Y74.804
G2X8.348Y75.122I1.159J-1.084
G1X8.535Y75.330
X8.610Y75.406
X8.685Y75.481
X8.760Y75.556
X8.835Y75.631
X8.910Y75.706
X8.985Y75.781
X9.061Y75.857
X9.136Y75.932
X9.211Y76.007
X9.286Y76.082
G2X9.805Y76.450I1.159J-1.084
G1X9.823Y76.469
G2X10.113Y76.833I1.374J-0.796
G2X10.477Y77.123I1.159J-1.084
G1X10.488Y77.134
X10.564Y77.209
G2X11.083Y77.577I1.159J-1.084
G1X11.165Y77.660
X11.240Y77.735
X11.315Y77.810
X11.390Y77.886
X11.465Y77.961
X11.541Y78.036
X11.552Y78.048
X11.589Y78.108
X11.695Y78.337
X11.771Y78.487
X11.985Y78.843
G2X12.292Y79.238I1.391J-0.765
G1X12.303Y79.250
G2X12.593Y79.614I1.374J-0.796
G1X12.668Y79.689
X12.743Y79.764
X12.818Y79.839
X12.893Y79.915
X12.968Y79.990
X13.043Y80.065
G2X13.569Y80.436I1.159J-1.084
G1X13.719Y80.511
G2X14.504Y80.718I0.784J-1.380
G1X15.330
G2X15.944Y80.595I0.000J-1.588
G2X16.715Y80.140I-0.388J-1.539
G1X16.790Y80.065
X16.865Y79.990
X16.941Y79.915
G2X17.396Y79.143I-1.084J-1.159
G1X17.471Y78.917
G2X17.594Y78.304I-1.464J-0.613
G1Y78.154
G2X17.514Y77.657I-1.588J0.000
G2X17.312Y76.994I-1.583J0.121
G1X17.237Y76.844
G2X16.929Y76.381I-1.455J0.634
G1X16.707Y76.084
X16.496Y75.736
X16.253Y75.404
G2X15.964Y75.041I-1.374J0.796
G1X15.888Y74.965
X15.813Y74.890
X15.738Y74.815
G2X15.343Y74.508I-1.159J1.084
G1X15.118Y74.358
X14.947Y74.239
X14.841Y73.858
X14.688Y73.474
X14.531Y73.086
X14.456Y72.936
X14.288Y72.640
Y72.518
G2X14.195Y71.984I-1.588J0.000
G2X14.005Y71.433I-1.570J0.233
G1X13.930Y71.283
X13.855Y71.132
X13.640Y70.776
X13.570Y70.660
X13.791Y70.352
X13.924Y70.157
X14.166Y69.826
X14.381Y69.469
X14.536Y69.089
X14.686Y69.013
X14.837Y68.938
G2X15.594Y68.247I-0.634J-1.455
G2X15.893Y67.645I-1.241J-0.990
G2X16.016Y67.032I-1.464J-0.613
G1Y66.431
G2X15.893Y65.817I-1.588J0.000
G1X15.734Y65.421
G2X15.362Y64.896I-1.455J0.634
G1X15.287Y64.820
G2X14.762Y64.449I-1.159J1.084
G1X14.611Y64.374
G2X13.827Y64.167I-0.784J1.380
G1X13.376
G2X12.592Y64.374I0.000J1.588
G1X12.314Y64.530
X11.873Y64.468
X11.498
G2X10.714Y64.675I0.000J1.587
G1X10.418Y64.843
X10.370
X10.209Y64.851
X10.177Y64.820
X10.102Y64.745
G2X9.576Y64.374I-1.159J1.084
G1X9.426Y64.299
X9.407Y64.288
X9.181Y64.138
X8.825Y63.923
X8.805Y63.912
X8.580Y63.762
X8.224Y63.547
X8.073Y63.472
X7.923Y63.397
X7.773Y63.322
X7.623Y63.247
X7.603Y63.236
X7.247Y63.021
G2X6.463Y62.814I-0.784J1.380
G1X5.711
G2X5.227Y62.890I0.000J1.587
G1X5.067Y62.716
X4.992Y62.641
X4.917Y62.566
X4.842Y62.491
G2X4.316Y62.120I-1.159J1.084
G2X3.532Y61.912I-0.784J1.380
G1X3.006
G2X2.393Y62.036I0.000J1.587
G2X1.790Y62.334I0.388J1.539
G2X1.396Y62.641I0.765J1.391
G1X1.320Y62.716
X1.245Y62.791
X1.170Y62.867
G2X0.799Y63.392I1.084J1.159
G1X0.724Y63.543
X0.647Y63.696
G2X0.268Y63.994I0.780J1.382
G1X0.193Y64.069
X0.000Y64.286
Y0.058
X0.004Y0.004
G0Z5.080
G0X63.460Y0.001
G1Z-4.000F300.0
G1X0.040F1000.0
X0.004Y0.004
X0.000Y0.058
Y2.224
X63.500
Y4.446
X0.000
Y6.669
X63.500
Y8.891
X0.000
Y11.114
X63.500
Y13.336
X0.000
Y15.559
X63.500
Y17.781
X0.000
Y20.004
X63.500
Y22.226
X0.000
Y24.449
X63.500
Y26.671
X0.000
Y28.894
X63.500
Y31.116
X0.000
Y33.339
X63.500
Y35.561
X0.000
Y37.784
X63.500
Y40.006
X0.000
Y42.229
X63.500
Y44.451
X0.000
Y46.674
X63.500
Y48.896
X0.000
Y51.119
X63.500
Y53.341
X0.000
Y55.564
X63.500
Y57.786
X15.693
X15.738Y57.832
X15.740Y57.833
X15.944Y57.903
X16.157Y57.973
X16.360Y58.073
X16.546Y58.201
X16.565Y58.212
X16.756Y58.311
X16.933Y58.436
X17.091Y58.583
X17.166Y58.658
X17.241Y58.733
X17.316Y58.809
X17.391Y58.884
X17.467Y58.959
X17.542Y59.034
X17.687Y59.190
X17.813Y59.367
X17.914Y59.562
X17.987Y59.768
X18.031Y59.981
X18.032Y60.009
X63.500
Y62.231
X17.504
X17.460Y62.303
X17.357Y62.435
X17.241Y62.555
X17.166Y62.630
X17.091Y62.706
X16.933Y62.853
X16.756Y62.978
X16.565Y63.077
X16.415Y63.152
X16.186Y63.259
X15.964Y63.377
X15.931Y63.396
X16.189Y63.618
X16.343Y63.784
X16.472Y63.971
X16.574Y64.175
X16.644Y64.390
X16.666Y64.454
X63.500
Y66.676
X16.451
X16.467Y66.882
Y67.558
X16.453Y67.766
X16.411Y67.974
X16.341Y68.177
X16.245Y68.368
X16.125Y68.543
X15.985Y68.697
X15.923Y68.899
X63.500
Y71.121
X14.187
X14.231Y71.208
X14.316Y71.383
X14.380Y71.568
X14.421Y71.759
X14.472Y71.933
X14.503Y72.112
X14.513Y72.292
Y72.454
X14.542Y72.505
X14.668Y72.687
X14.768Y72.887
X14.838Y73.098
X14.927Y73.285
X14.946Y73.344
X46.308
X46.214Y73.437
X46.072Y73.630
X45.963Y73.838
X45.888Y73.988
X45.795Y74.181
X45.729Y74.384
X45.672Y74.544
X45.632Y74.709
X45.610Y74.876
X45.566Y75.039
X45.539Y75.205
X45.530Y75.373
Y75.449
X45.539Y75.566
X16.635
X16.646Y75.586
X16.763Y75.753
X16.857Y75.934
X16.865Y75.942
X16.941Y76.017
X17.016Y76.093
X17.132Y76.213
X17.234Y76.345
X17.323Y76.487
X17.442Y76.659
X17.537Y76.844
X17.629Y77.034
X17.695Y77.235
X17.831Y77.433
X17.842Y77.445
X17.917Y77.520
X18.071Y77.686
X18.142Y77.789
X46.066
X46.137Y77.927
X46.262Y78.104
X46.409Y78.261
X46.420Y78.273
X46.553Y78.468
X46.703Y78.693
X46.734Y78.746
X46.762Y78.983
X46.825Y79.213
X46.865Y79.404
X46.929Y79.589
X47.015Y79.765
X47.110Y79.950
X47.153Y80.011
X18.460
X18.453Y80.032
X18.364Y80.215
X18.289Y80.366
X18.189Y80.557
X18.065Y80.734
X17.917Y80.891
X17.760Y81.038
X17.583Y81.163
X17.392Y81.263
X17.242Y81.338
X17.058Y81.427
X16.863Y81.492
X16.661Y81.532
X16.457Y81.545
X16.232
X16.028Y81.532
X15.826Y81.492
X15.631Y81.427
X15.448Y81.338
X15.243Y81.230
X15.056Y81.094
X14.954
X14.774Y81.084
X14.595Y81.053
X14.421Y81.002
X14.170Y80.943
X13.975Y80.927
X13.782Y80.887
X13.595Y80.823
X13.419Y80.737
X13.228Y80.637
X13.051Y80.512
X12.893Y80.365
X12.818Y80.290
X12.743Y80.215
X12.668Y80.140
X12.593Y80.065
X12.539Y80.011
G0Z5.080
G0X16.635Y75.566
G1Z-4.000F300.0
G0X16.635Y75.566Z5.080
G0X0.000Y71.121
G1Z-4.000F300.0
G1X2.788F1000.0
X2.887Y71.186
X3.048Y71.268
X3.260Y71.368
X3.483Y71.436
X3.596Y71.587
X3.725Y71.723
X3.800Y71.799
X3.958Y71.946
X4.135Y72.070
X4.326Y72.170
X4.508Y72.258
X4.701Y72.323
X4.837Y72.437
X4.986Y72.536
X5.144Y72.617
X5.153Y72.625
X5.228Y72.700
X5.399Y72.858
X5.592Y72.990
X5.604Y73.001
X5.679Y73.076
X5.754Y73.151
X5.829Y73.226
X5.904Y73.301
X5.947Y73.344
X0.000
Y75.566
X8.446
X8.527Y75.685
X8.685Y75.857
X8.760Y75.932
X8.835Y76.007
X8.910Y76.082
X8.985Y76.157
X9.061Y76.232
X9.136Y76.307
X9.293Y76.454
X9.470Y76.579
X9.661Y76.679
X9.672Y76.685
X9.812Y76.833
X9.887Y76.909
X9.962Y76.984
X10.038Y77.059
X10.113Y77.134
X10.188Y77.209
X10.263Y77.284
X10.338Y77.359
X10.413Y77.435
X10.534Y77.551
X10.666Y77.653
X10.808Y77.742
X10.877Y77.789
X0.000
Y80.011
X12.539
G0Z5.080
G0X0.000Y82.234
G1Z-4.000F300.0
G1X47.484F1000.0
G0Z5.080
G0X49.133Y73.344
G1Z-4.000F300.0
G1X63.500F1000.0
Y75.566
X50.548
X50.549Y75.569
X50.579Y75.778
X50.611Y75.887
X50.686Y76.113
X50.759Y76.329
X50.763Y76.337
X50.896Y76.532
X51.026Y76.686
X51.135Y76.856
X51.222Y77.040
X51.285Y77.231
X51.368Y77.405
X51.431Y77.589
X51.470Y77.779
X51.471Y77.789
X63.500
Y80.011
X51.614
X51.630Y80.034
X51.729Y80.225
X51.822Y80.418
X51.889Y80.622
X51.964Y80.847
X52.032Y81.045
X52.073Y81.251
X52.087Y81.460
Y81.535
X52.077Y81.716
X52.046Y81.895
X51.995Y82.069
X51.960Y82.234
X63.500
Y84.456
X0.000
Y86.678
X63.500
Y88.842
X63.496Y88.896
X63.460Y88.899
X0.040
G0Z5.080
G0X7.130Y57.786
G1Z-4.000F300.0
G1X0.000F1000.0
Y60.009
X8.167
X8.234Y60.075
X8.309Y60.151
X8.384Y60.226
X8.542Y60.373
X8.719Y60.498
X8.910Y60.597
X8.929Y60.608
X9.124Y60.741
X9.136Y60.752
X9.211Y60.827
X9.286Y60.902
X9.361Y60.977
X9.436Y61.052
X9.512Y61.128
X9.587Y61.203
X9.662Y61.278
X9.737Y61.353
X9.812Y61.428
X9.967Y61.573
X10.141Y61.697
X10.329Y61.796
X10.338Y61.804
X10.509Y61.962
X10.702Y62.093
X10.860Y62.226
X10.869Y62.231
X6.615
G0Z5.080
G0X0.754
G1Z-4.000F300.0
G1X0.000F1000.0
G0Z5.080
G0X0.000Y0.058
G1Z-4.000F300.0
G1X0.004Y0.004F1000.0
X0.058Y0.000
X63.442
X63.496Y0.004
X63.500Y0.058
Y88.842
X63.496Y88.896
X63.442Y88.900
X0.058
X0.004Y88.896
X0.000Y88.842
Y69.381
X0.218Y69.429
X0.276Y69.448
X0.438Y69.550
X0.786Y69.761
X0.794Y69.770
G2X1.189Y70.076I1.159J-1.084
G1X1.537Y70.287
X1.546Y70.296
X1.621Y70.371
X1.696Y70.446
G2X2.222Y70.817I1.159J-1.084
G1X2.596Y70.970
G2X3.048Y71.268I1.086J-1.158
G2X3.483Y71.436I0.784J-1.380
G1X3.725Y71.723
X3.800Y71.799
G2X4.326Y72.170I1.159J-1.084
G1X4.701Y72.323
G2X5.144Y72.617I1.086J-1.158
G1X5.153Y72.625
X5.228Y72.700
G2X5.592Y72.990I1.159J-1.084
G1X5.604Y73.001
X5.679Y73.076
X5.754Y73.151
X5.829Y73.226
X5.904Y73.301
X5.980Y73.377
X6.055Y73.452
X6.130Y73.527
X6.205Y73.602
G2X6.731Y73.973I1.159J-1.084
G1X6.881Y74.048
X7.031Y74.124
X7.034Y74.125
X7.268Y74.440
G2X7.558Y74.804I1.374J-0.796
G2X7.922Y75.094I1.159J-1.084
G1X7.933Y75.105
G2X8.301Y75.396I1.159J-1.084
G1X8.384Y75.481
X8.395Y75.493
G2X8.685Y75.857I1.374J-0.796
G1X8.760Y75.932
X8.835Y76.007
X8.910Y76.082
X8.985Y76.157
X9.061Y76.232
X9.136Y76.307
G2X9.661Y76.679I1.159J-1.084
G1X9.672Y76.685
X9.812Y76.833
X9.887Y76.909
X9.962Y76.984
X10.038Y77.059
X10.113Y77.134
X10.188Y77.209
X10.263Y77.284
X10.338Y77.359
X10.413Y77.435
G2X10.808Y77.742I1.159J-1.084
G1X11.003Y77.874
X11.014Y77.886
X11.026Y77.897
G2X11.315Y78.261I1.374J-0.796
G1X11.390Y78.336
X11.392Y78.338
X11.545Y78.713
G2X11.852Y79.175I1.455J-0.634
G1X12.078Y79.475
G2X12.367Y79.839I1.374J-0.796
G1X12.442Y79.915
X12.517Y79.990
X12.593Y80.065
X12.668Y80.140
X12.743Y80.215
X12.818Y80.290
X12.893Y80.365
G2X13.419Y80.737I1.159J-1.084
G2X14.170Y80.943I0.784J-1.380
G1X14.421Y81.002
G2X14.954Y81.094I0.533J-1.495
G1X15.056
G2X15.448Y81.338I1.026J-1.212
G2X16.232Y81.545I0.784J-1.380
G1X16.457
G2X17.242Y81.338I0.000J-1.588
G1X17.392Y81.263
G2X17.917Y80.891I-0.634J-1.455
G2X18.289Y80.366I-1.084J-1.159
G1X18.364Y80.215
G2X18.571Y79.431I-1.380J-0.784
G1Y79.131
G2X18.448Y78.517I-1.588J0.000
G1X18.373Y78.292
G2X17.917Y77.520I-1.539J0.388
G1X17.842Y77.445
X17.831Y77.433
X17.695Y77.235
X17.537Y76.844
X17.323Y76.487
G2X17.016Y76.093I-1.391J0.765
G1X16.941Y76.017
X16.865Y75.942
X16.857Y75.934
X16.646Y75.586
X16.635Y75.566
G2X16.328Y75.104I-1.455J0.634
G2X16.039Y74.740I-1.374J0.796
G1X15.964Y74.665
X15.888Y74.590
X15.813Y74.514
G2X15.419Y74.208I-1.159J1.084
G1X15.193Y74.057
X15.185Y74.051
X15.141Y73.933
X15.066Y73.708
X14.991Y73.483
X14.838Y73.098
G2X14.542Y72.505I-1.537J0.397
G1X14.513Y72.454
Y72.292
G2X14.421Y71.759I-1.588J0.000
G2X14.231Y71.208I-1.570J0.233
G1X14.155Y71.057
X14.080Y70.907
X14.005Y70.757
X13.980Y70.702
X14.010Y70.671
X14.046Y70.636
X14.060Y70.631
G2X14.611Y70.441I-0.233J-1.570
G1X14.968Y70.227
G2X15.594Y69.600I-0.765J-1.391
G2X15.893Y68.998I-1.241J-0.990
G1X15.985Y68.697
G2X16.467Y67.558I-1.106J-1.139
G1Y66.882
G2X16.393Y66.403I-1.588J0.000
G2X16.767Y65.379I-1.213J-1.024
G1Y65.003
G2X16.644Y64.390I-1.588J0.000
G2X16.189Y63.618I-1.539J0.388
G1X15.931Y63.396
X15.964Y63.377
X16.186Y63.259
X16.415Y63.152
X16.565Y63.077
G2X17.091Y62.706I-0.634J-1.455
G1X17.166Y62.630
X17.241Y62.555
G2X17.548Y62.161I-1.084J-1.159
G1X17.763Y61.804
X17.922Y61.408
G2X18.045Y60.795I-1.464J-0.613
G1Y60.193
G2X17.542Y59.034I-1.588J0.000
G1X17.467Y58.959
X17.391Y58.884
X17.316Y58.809
X17.241Y58.733
X17.166Y58.658
X17.091Y58.583
G2X16.565Y58.212I-1.159J1.084
G1X16.546Y58.201
G2X15.944Y57.903I-0.990J1.241
G1X15.740Y57.833
X15.738Y57.832
X15.663Y57.756
G2X15.268Y57.450I-1.159J1.084
G1X14.912Y57.235
X14.525Y57.078
X14.149Y56.928
X14.010Y56.859
G2X13.459Y56.669I-0.784J1.380
G1X13.313Y56.625
X13.088Y56.550
X12.862Y56.475
X12.637Y56.400
G2X12.145Y56.281I-0.613J1.464
G1X12.036Y56.249
X11.819Y56.177
X11.435Y56.024
X11.054Y55.918
X10.754Y55.843
X10.608Y55.798
X10.383Y55.723
G2X9.769Y55.600I-0.613J1.464
G1X9.168
G2X8.384Y55.807I0.000J1.588
G2X7.858Y56.178I0.634J1.455
G1X7.783Y56.254
X7.708Y56.329
G2X7.337Y56.854I1.084J1.159
G2X7.130Y57.638I1.380J0.784
G1Y57.864
G2X7.253Y58.477I1.588J0.000
G1X7.412Y58.873
X7.487Y59.024
X7.562Y59.174
X7.637Y59.324
G2X8.009Y59.850I1.455J-0.634
G1X8.084Y59.925
X8.159Y60.000
X8.234Y60.075
X8.309Y60.151
X8.384Y60.226
G2X8.910Y60.597I1.159J-1.084
G1X8.929Y60.608
X9.124Y60.741
X9.136Y60.752
X9.211Y60.827
X9.286Y60.902
X9.361Y60.977
X9.436Y61.052
X9.512Y61.128
X9.587Y61.203
X9.662Y61.278
X9.737Y61.353
X9.812Y61.428
G2X10.329Y61.796I1.159J-1.084
G1X10.338Y61.804
G2X10.702Y62.093I1.159J-1.084
G1X11.034Y62.336
X11.228Y62.469
X11.560Y62.712
X11.785Y62.862
X12.135Y63.074
X12.217Y63.157
X12.292Y63.232
G2X12.687Y63.539I1.159J-1.084
G1X12.827Y63.638
X12.517Y63.773
X12.368Y63.848
X11.949Y63.791
X11.272
G2X10.488Y63.998I0.000J1.588
G1X10.373Y64.054
X10.158Y63.912
G2X9.401Y63.583I-0.990J1.241
G1X9.220Y63.530
X9.106Y63.461
X8.750Y63.247
X8.354Y63.088
X8.150Y63.018
X8.148Y63.017
X8.073Y62.942
G2X7.547Y62.571I-1.159J1.084
G2X6.996Y62.381I-0.784J1.380
G1X6.860Y62.339
G2X6.087Y62.138I-0.773J1.387
G1X5.862
G2X5.377Y62.214I0.000J1.588
G1X5.217Y62.040
X5.142Y61.965
X5.067Y61.890
G2X4.542Y61.518I-1.159J1.084
G2X3.757Y61.311I-0.784J1.380
G1X2.931
G2X2.448Y61.386I0.000J1.588
G1X2.405
G2X1.621Y61.594I0.000J1.588
G1X1.470Y61.669
G2X0.945Y62.040I0.634J1.455
G1X0.870Y62.115
X0.794Y62.190
X0.691Y62.297
X0.526Y62.288
X0.301
X0.000Y62.317
Y0.058
G0Z5.080
G0X46.785Y73.016
G1Z-4.000F300.0
G2X45.963Y73.838I0.634J1.455F1000.0
G1X45.888Y73.988
X45.729Y74.384
G2X45.610Y74.876I1.464J0.613
G2X45.530Y75.373I1.508J0.497
G1Y75.449
G2X45.606Y75.932I1.588J0.000
G2X45.681Y76.382I1.587J-0.033
G1Y76.425
G2X45.760Y76.922I1.588J0.000
G2X45.963Y77.585I1.583J-0.121
G1X46.038Y77.736
G2X46.409Y78.261I1.455J-0.634
G1X46.420Y78.273
X46.553Y78.468
X46.703Y78.693
X46.734Y78.746
G2X46.825Y79.213I1.586J-0.066
G2X47.015Y79.765I1.570J-0.233
G1X47.229Y80.121
X47.481Y80.461
X47.457Y80.546
G2X47.334Y81.160I1.464J0.613
G1Y81.310
G2X47.409Y81.794I1.588J0.000
G2X47.616Y82.545I1.587J-0.033
G2X47.987Y83.071I1.455J-0.634
G1X48.062Y83.146
X48.138Y83.221
X48.213Y83.296
X48.288Y83.371
G2X49.447Y83.874I1.159J-1.084
G1X50.049
G2X50.833Y83.667I0.000J-1.587
G2X51.358Y83.296I-0.634J-1.455
G2X51.729Y82.771I-1.084J-1.159
G1X51.805Y82.620
G2X51.995Y82.069I-1.380J-0.784
G2X52.087Y81.535I-1.495J-0.533
G1Y81.460
G2X51.964Y80.847I-1.588J0.000
G1X51.889Y80.622
X51.729Y80.225
G2X51.358Y79.700I-1.455J0.634
G1X51.338Y79.679
X51.362Y79.594
G2X51.481Y79.102I-1.464J-0.613
G2X51.561Y78.605I-1.508J-0.497
G1Y78.454
G2X51.485Y77.971I-1.588J0.000
G2X51.285Y77.231I-1.587J0.033
G2X50.896Y76.532I-1.537J0.397
G1X50.763Y76.337
X50.759Y76.329
X50.686Y76.113
X50.611Y75.887
X50.579Y75.778
X50.492Y75.366
G2X50.302Y74.815I-1.570J0.233
G1X50.087Y74.458
G2X49.780Y74.064I-1.391J0.765
G1X49.705Y73.988
X49.630Y73.913
X49.515Y73.802
X49.404Y73.688
X49.393Y73.676
G2X49.104Y73.312I-1.374J0.796
G2X47.944Y72.809I-1.159J1.084
G1X47.569
G2X46.785Y73.016I0.000J1.588
G0Z5.080
G0X63.460Y0.001
G1Z-5.000F300.0
G1X0.040F1000.0
X0.004Y0.004
X0.000Y0.058
Y2.224
X63.500
Y4.446
X0.000
Y6.669
X63.500
Y8.891
X0.000
Y11.114
X63.500
Y13.336
X0.000
Y15.559
X63.500
Y17.781
X0.000
Y20.004
X63.500
Y22.226
X0.000
Y24.449
X63.500
Y26.671
X28.536
X28.554Y26.691
X28.657Y26.823
X28.745Y26.965
X28.873Y27.150
X28.973Y27.353
X29.044Y27.567
X29.112Y27.765
X29.153Y27.971
X29.167Y28.180
Y28.256
X29.156Y28.436
X29.125Y28.615
X29.074Y28.789
X29.052Y28.894
X63.500
Y31.116
G0Z5.080
G0X24.982Y26.671
G1Z-5.000F300.0
G1X0.000F1000.0
Y28.894
X24.898
G0Z5.080
G0X63.500Y31.116
G1Z-5.000F300.0
G1X0.000F1000.0
Y33.339
X63.500
Y35.561
X0.000
Y37.784
X63.500
Y40.006
X0.000
Y42.229
X63.500
Y44.451
X0.000
Y46.674
X63.500
Y48.896
X0.000
Y51.119
X63.500
Y53.341
X0.000
Y55.564
X6.117
X6.084Y55.610
X5.983Y55.804
X5.910Y56.011
X5.866Y56.223
X5.852Y56.436
Y57.112
X5.862Y57.293
X5.893Y57.472
X5.944Y57.646
X5.974Y57.786
X0.000
Y60.009
X7.416
X7.419Y60.012
X7.550Y60.205
X7.708Y60.376
X7.783Y60.451
X7.858Y60.526
X8.016Y60.673
X8.193Y60.798
X8.384Y60.897
X8.534Y60.973
X8.698Y61.053
X8.870Y61.115
X9.047Y61.157
X9.058Y61.162
X9.286Y61.428
X9.361Y61.503
X9.436Y61.578
X9.512Y61.654
X9.669Y61.801
X9.846Y61.925
X10.037Y62.025
X10.179Y62.096
X10.188Y62.104
X10.263Y62.180
X10.315Y62.231
X8.407
G0Z5.080
G0X11.482Y55.564
G1Z-5.000F300.0
G1X63.500F1000.0
Y57.786
X16.605
X16.771Y57.901
X16.822Y57.930
X16.908
X17.112Y57.943
X17.314Y57.982
X17.509Y58.048
X17.692Y58.137
X17.878Y58.232
X18.049Y58.351
X18.223Y58.463
X18.383Y58.597
X18.525Y58.753
X18.645Y58.925
X18.740Y59.109
X18.815Y59.259
X18.904Y59.443
X18.969Y59.638
X19.009Y59.840
X19.020Y60.009
X25.160
X25.101Y60.040
X24.924Y60.164
X24.767Y60.312
X24.691Y60.387
X24.546Y60.542
X24.420Y60.720
X24.319Y60.914
X24.246Y61.121
X24.203Y61.334
X24.188Y61.546
Y61.772
X24.202Y61.981
X24.244Y62.187
X24.259Y62.231
X17.845
X17.726Y62.332
X17.633Y62.495
X17.520Y62.645
X17.391Y62.781
X17.316Y62.856
X17.241Y62.931
X17.166Y63.006
X17.034Y63.132
X16.889Y63.242
X16.732Y63.334
X16.872Y63.487
X16.991Y63.659
X17.086Y63.843
X17.172Y64.018
X17.236Y64.203
X17.276Y64.394
X17.294Y64.454
X26.543
X26.645Y64.505
X26.828Y64.594
X27.023Y64.659
X27.225Y64.699
X27.429Y64.712
X27.666
X27.847Y64.805
X28.018Y64.889
X28.198Y64.952
X28.385Y64.993
X28.574Y65.011
X28.599Y65.035
X28.674Y65.110
X28.749Y65.186
X28.825Y65.261
X28.900Y65.336
X29.057Y65.483
X29.234Y65.608
X29.425Y65.707
X29.576Y65.782
X29.726Y65.857
X29.876Y65.932
X30.065Y66.024
X30.263Y66.089
X30.451Y66.178
X30.648Y66.242
X30.874Y66.317
X31.072Y66.385
X31.278Y66.426
X31.487Y66.440
X32.389
X32.408Y66.440
X32.557Y66.568
X32.719Y66.676
X16.898
X16.918Y66.882
Y67.483
X16.904Y67.692
X16.862Y67.898
X16.794Y68.096
X16.728Y68.300
X16.635Y68.492
X16.541Y68.675
X16.424Y68.845
X16.375Y68.899
X35.469
X35.513Y68.943
X35.588Y69.018
X35.663Y69.093
X35.738Y69.168
X35.896Y69.315
X36.073Y69.440
X36.264Y69.540
X36.457Y69.632
X36.660Y69.699
X36.826Y69.758
X36.998Y69.798
X37.174Y69.819
X37.319Y69.998
X37.490Y70.155
X37.680Y70.284
X37.692Y70.296
X37.767Y70.371
X37.938Y70.529
X38.131Y70.660
X38.273Y70.780
X38.428Y70.883
X38.593Y70.967
X38.744Y71.042
X38.906Y71.121
X14.598
X14.630Y71.191
X14.690Y71.378
X14.765Y71.604
X14.833Y71.802
X14.875Y72.008
X14.889Y72.217
Y72.445
X14.907Y72.485
X14.918Y72.505
X15.044Y72.687
X15.144Y72.887
X15.214Y73.098
X15.303Y73.285
X15.322Y73.344
X43.073
X43.185Y73.449
X43.362Y73.573
X43.553Y73.673
X43.703Y73.748
X43.889Y73.838
X44.084Y73.903
X44.218Y74.102
X44.380Y74.278
X44.455Y74.354
X44.530Y74.429
X44.606Y74.504
X44.681Y74.579
X44.814Y74.706
X44.962Y74.817
X45.122Y74.910
X45.155Y75.029
Y75.449
X45.161Y75.566
X16.936
X17.011Y75.716
X17.017Y75.727
X17.166Y75.867
X17.241Y75.942
X17.316Y76.017
X17.391Y76.093
X17.538Y76.250
X17.663Y76.427
X17.763Y76.618
X17.885Y76.889
X17.993Y76.994
X18.068Y77.070
X18.143Y77.145
X18.290Y77.302
X18.415Y77.479
X18.514Y77.670
X18.573Y77.789
X45.727
X45.737Y77.811
X45.821Y77.976
X45.924Y78.131
X46.045Y78.273
X46.183Y78.474
X46.272Y78.653
X46.383Y78.818
X46.432Y79.012
Y79.056
X46.445Y79.259
X46.485Y79.461
X46.550Y79.656
X46.639Y79.840
X46.714Y79.990
X46.725Y80.011
X20.246
X20.369Y80.184
X20.468Y80.376
X20.543Y80.526
X20.618Y80.676
X20.752Y80.985
X20.880Y81.195
X20.974Y81.425
X21.032Y81.666
X21.051Y81.911
Y82.234
X46.974
X46.963Y82.316
X46.906Y82.545
X46.883Y82.780
X46.827Y83.019
X46.808Y83.264
Y84.015
X46.818Y84.196
X46.849Y84.375
X46.873Y84.456
G0Z5.080
G0X28.199Y60.009
G1Z-5.000F300.0
G1X63.500F1000.0
Y62.231
X33.263
X33.316Y62.269
X33.473Y62.416
X33.548Y62.491
X33.623Y62.566
X33.635Y62.577
X33.808Y62.693
X33.964Y62.830
X34.163Y62.871
X34.355Y62.938
X34.558Y63.004
X34.751Y63.097
X34.901Y63.172
X35.124Y63.290
X35.352Y63.397
X35.531Y63.489
X35.698Y63.604
X35.849Y63.739
X35.981Y63.891
X36.178Y64.069
X36.254Y64.144
X36.399Y64.299
X36.554Y64.445
X36.562Y64.454
X63.500
Y66.676
X40.870
X40.894Y66.693
X41.048Y66.789
X41.189Y66.903
X41.354Y66.944
X41.513Y67.004
X41.665Y67.079
X41.815Y67.155
X41.965Y67.230
X42.150Y67.325
X42.321Y67.444
X42.464Y67.532
X42.596Y67.635
X42.716Y67.751
X42.791Y67.826
X42.867Y67.901
X43.006Y68.050
X43.205Y68.116
X43.393Y68.207
X43.543Y68.282
X43.735Y68.381
X43.911Y68.506
X44.069Y68.653
X44.144Y68.728
X44.219Y68.803
X44.221Y68.805
X44.410Y68.868
X44.473Y68.899
X63.500
Y71.121
X47.965
X47.977Y71.133
X48.135Y71.304
X48.266Y71.497
X48.387Y71.639
X48.491Y71.796
X48.575Y71.963
X48.742Y72.047
X48.898Y72.150
X49.040Y72.271
X49.211Y72.386
X49.368Y72.522
X49.504Y72.678
X49.619Y72.849
X49.751Y73.007
X49.862Y73.181
X49.974Y73.344
X63.500
Y75.566
X51.012
X51.018Y75.594
X51.035Y75.791
X51.062Y75.887
X51.112Y76.025
X51.197Y76.156
X51.317Y76.298
X51.420Y76.453
X51.504Y76.618
X51.579Y76.769
X51.654Y76.919
X51.729Y77.069
X51.822Y77.262
X51.889Y77.465
X51.953Y77.652
X51.982Y77.789
X63.500
Y80.011
X52.215
X52.235Y80.040
X52.331Y80.225
X52.424Y80.418
X52.490Y80.622
X52.558Y80.820
X52.599Y81.026
X52.613Y81.235
Y81.986
X52.600Y82.187
X52.591Y82.234
X63.500
Y84.456
X51.118
X51.012Y84.737
X50.970Y84.915
X50.908Y85.087
X50.828Y85.250
X50.753Y85.401
X50.653Y85.592
X50.528Y85.769
X50.381Y85.926
X50.224Y86.073
X50.047Y86.198
X49.856Y86.298
X49.672Y86.387
X49.477Y86.452
X49.275Y86.492
X49.072Y86.505
X48.996
X48.816Y86.494
X48.637Y86.463
X48.463Y86.412
X48.257Y86.368
X48.055Y86.295
X47.865Y86.195
X47.691Y86.071
X47.536Y85.926
X47.389Y85.769
X47.264Y85.592
X47.165Y85.401
X47.079Y85.225
X47.016Y85.040
X46.975Y84.849
X46.900Y84.549
X46.873Y84.456
G0Z5.080
G0X16.936Y75.566
G1Z-5.000F300.0
G0X16.936Y75.566Z5.080
G0X2.079Y71.121
G1Z-5.000F300.0
G1X0.000F1000.0
Y73.344
X5.496
X5.529Y73.377
X5.604Y73.452
X5.679Y73.527
X5.754Y73.602
X5.829Y73.677
X5.904Y73.752
X6.062Y73.899
X6.239Y74.024
X6.430Y74.124
X6.580Y74.199
X6.731Y74.274
X6.833Y74.327
X6.929Y74.500
X7.046Y74.660
X7.182Y74.804
X7.257Y74.880
X7.332Y74.955
X7.407Y75.030
X7.483Y75.105
X7.558Y75.180
X7.633Y75.255
X7.753Y75.371
X7.886Y75.474
X8.028Y75.562
X8.033Y75.566
X0.000
Y77.789
X10.402
X10.434Y77.818
X10.627Y77.950
X10.648Y77.969
X10.753Y78.128
X10.875Y78.273
X10.978Y78.428
X11.098Y78.571
X11.169Y78.713
X11.245Y78.863
X11.320Y79.013
X11.419Y79.204
X11.544Y79.381
X11.691Y79.539
X11.773Y79.621
X11.857Y79.784
X11.959Y79.937
X12.022Y80.011
X0.000
Y82.234
X15.142
G0Z5.080
G0X0.000Y86.678
G1Z-5.000F300.0
G1Y84.456F1000.0
X46.873
X0.000
Y86.678
X35.316
X35.174Y86.801
X35.026Y86.971
X34.905Y87.158
X34.786Y87.330
X34.691Y87.515
X34.605Y87.691
X34.540Y87.877
X34.500Y88.071
X34.484Y88.266
X34.427Y88.505
X34.408Y88.750
Y88.899
G0Z5.080
G0X0.000Y86.678
G1Z-5.000F300.0
G1X35.316F1000.0
X35.344Y86.653
X35.532Y86.532
X35.717Y86.404
X35.920Y86.304
X36.134Y86.233
X36.332Y86.165
X36.538Y86.124
X36.747Y86.110
X37.123
X37.327Y86.123
X37.529Y86.163
X37.724Y86.228
X37.907Y86.317
X38.098Y86.417
X38.275Y86.541
X38.421Y86.678
X63.500
Y88.842
X63.496Y88.896
X63.460Y88.899
X39.387
G0Z5.080
G0X34.408
G1Z-5.000F300.0
G1X0.040F1000.0
G0Z5.080
G0X26.044Y29.937
G1Z-5.000F300.0
G2X26.828Y30.144I0.784J-1.380F1000.0
G1X27.504
G2X29.074Y28.789I0.000J-1.587
G2X29.167Y28.256I-1.495J-0.533
G1Y28.180
G2X29.044Y27.567I-1.588J0.000
G2X28.745Y26.965I-1.539J0.388
G2X28.438Y26.570I-1.391J0.765
G1X28.363Y26.495
X28.288Y26.420
G2X27.762Y26.049I-1.159J1.084
G2X26.978Y25.841I-0.784J1.380
G1X26.527
G2X25.743Y26.049I0.000J1.588
G2X25.217Y26.420I0.634J1.455
G1X25.142Y26.495
G2X24.639Y27.654I1.084J1.159
G1Y28.030
G2X25.142Y29.190I1.588J0.000
G1X25.217Y29.265
X25.293Y29.340
X25.368Y29.415
X25.443Y29.490
X25.518Y29.565
G2X26.044Y29.937I1.159J-1.084
G0Z5.080
G0X32.947Y62.045
G1Z-5.000F300.0
G1X32.797Y61.969F1000.0
X32.778Y61.958
G2X32.184Y61.662I-0.990J1.241
G1X31.968Y61.562
X31.745Y61.443
X31.726Y61.432
G2X31.132Y61.136I-0.990J1.241
G2X30.360Y60.936I-0.773J1.387
G1X30.341
G2X29.866Y60.617I-1.108J1.137
G1X29.470Y60.458
X29.245Y60.383
G2X28.798Y60.268I-0.613J1.464
G1X28.739Y60.241
X28.352Y60.084
X28.213Y60.016
G2X27.550Y59.813I-0.784J1.380
G2X27.053Y59.733I-0.497J1.508
G1X26.828
X26.790Y59.734
X26.753Y59.733
X26.076
G2X25.292Y59.940I0.000J1.588
G2X24.767Y60.312I0.634J1.455
G1X24.691Y60.387
G2X24.188Y61.546I1.084J1.159
G1Y61.772
G2X24.312Y62.385I1.588J0.000
G1X24.471Y62.781
G2X24.842Y63.307I1.455J-0.634
G1X24.917Y63.382
X24.992Y63.457
G2X25.518Y63.828I1.159J-1.084
G1X25.660Y63.900
X25.988Y64.140
X26.344Y64.354
X26.495Y64.429
X26.645Y64.505
G2X27.429Y64.712I0.784J-1.380
G1X27.666
X27.847Y64.805
G2X28.574Y65.011I0.784J-1.380
G1X28.599Y65.035
X28.674Y65.110
X28.749Y65.186
X28.825Y65.261
X28.900Y65.336
G2X29.425Y65.707I1.159J-1.084
G1X29.576Y65.782
X29.726Y65.857
X29.876Y65.932
X30.263Y66.089
X30.648Y66.242
X30.874Y66.317
G2X31.487Y66.440I0.613J-1.464
G1X32.389
X32.408Y66.440
X32.720Y66.677
X32.732Y66.688
G2X33.258Y67.060I1.159J-1.084
G1X33.645Y67.216
G2X34.341Y67.415I0.773J-1.387
G1X34.631Y67.519
X34.657Y67.530
G2X34.841Y68.042I1.564J-0.273
G2X35.148Y68.504I1.455J-0.634
G2X35.438Y68.868I1.374J-0.796
G1X35.513Y68.943
X35.588Y69.018
X35.663Y69.093
X35.738Y69.168
G2X36.264Y69.540I1.159J-1.084
G1X36.660Y69.699
G2X37.174Y69.819I0.613J-1.464
G2X37.680Y70.284I1.302J-0.908
G1X37.692Y70.296
X37.767Y70.371
G2X38.131Y70.660I1.159J-1.084
G2X38.593Y70.967I1.096J-1.148
G1X38.744Y71.042
G2X39.528Y71.250I0.784J-1.380
G1X39.539
X39.590Y71.279
X39.946Y71.493
X40.096Y71.569
X40.247Y71.644
G2X40.815Y71.836I0.784J-1.380
G1X41.093Y72.030
X41.318Y72.181
X41.674Y72.395
G2X42.106Y72.563I0.784J-1.380
G1X42.351Y72.696
X42.642Y72.824
G2X42.952Y73.226I1.395J-0.757
G1X43.028Y73.301
G2X43.553Y73.673I1.159J-1.084
G1X43.703Y73.748
X44.084Y73.903
G2X44.380Y74.278I1.380J-0.784
G1X44.455Y74.354
X44.530Y74.429
X44.606Y74.504
X44.681Y74.579
G2X45.122Y74.910I1.159J-1.084
G1X45.155Y75.029
Y75.449
G2X45.234Y75.945I1.587J0.000
G2X45.353Y76.438I1.583J-0.121
G1X45.397Y76.583
X45.455Y76.834
G2X45.578Y77.415I1.587J-0.033
G1X45.737Y77.811
G2X46.045Y78.273I1.455J-0.634
G1X46.183Y78.474
X46.383Y78.818
X46.432Y79.012
Y79.056
G2X46.639Y79.840I1.588J0.000
G1X46.714Y79.990
X46.789Y80.140
X47.004Y80.497
X47.015Y80.516
X47.033Y80.556
Y80.677
G2X46.958Y81.160I1.512J0.483
G1Y81.235
G2X47.033Y81.718I1.588J0.000
G1Y81.955
X46.963Y82.316
G2X46.883Y82.780I1.508J0.497
G2X46.808Y83.264I1.512J0.484
G1Y84.015
G2X46.900Y84.549I1.587J0.000
G1X46.975Y84.849
G2X47.165Y85.401I1.570J-0.233
G2X47.536Y85.926I1.455J-0.634
G2X48.463Y86.412I1.159J-1.084
G2X48.996Y86.505I0.533J-1.495
G1X49.072
G2X49.856Y86.298I0.000J-1.588
G2X50.381Y85.926I-0.634J-1.455
G2X50.753Y85.401I-1.084J-1.159
G1X50.828Y85.250
G2X51.012Y84.737I-1.380J-0.784
G1X51.135Y84.412
X51.283Y84.043
X51.284Y84.043
G2X51.809Y83.672I-0.634J-1.455
G1X51.884Y83.597
X51.959Y83.522
G2X52.412Y82.759I-1.084J-1.159
G2X52.613Y81.986I-1.387J-0.773
G1Y81.235
G2X52.490Y80.622I-1.587J0.000
G1X52.331Y80.225
X52.116Y79.869
X51.966Y79.644
X51.889Y79.518
X51.964Y79.293
G2X52.087Y78.680I-1.464J-0.613
G1Y78.379
G2X51.995Y77.846I-1.588J0.000
G1X51.889Y77.465
X51.729Y77.069
X51.654Y76.919
X51.579Y76.769
X51.504Y76.618
G2X51.197Y76.156I-1.455J0.634
G1X51.112Y76.025
X51.062Y75.887
X51.035Y75.791
G2X50.912Y75.211I-1.587J0.033
G1X50.836Y74.985
X50.677Y74.589
X50.602Y74.439
X50.388Y74.083
X50.154Y73.761
G2X49.862Y73.181I-1.534J0.410
G1X49.619Y72.849
G2X49.040Y72.271I-1.374J0.796
G2X48.575Y71.963I-1.096J1.148
G2X48.266Y71.497I-1.457J0.630
G2X47.977Y71.133I-1.374J0.796
G1X47.901Y71.058
X47.826Y70.983
X47.751Y70.907
G2X47.356Y70.601I-1.159J1.084
G1X47.000Y70.386
X46.687Y70.250
X46.474Y70.006
X46.399Y69.930
X46.323Y69.855
X46.248Y69.780
G2X45.723Y69.409I-1.159J1.084
G1X45.572Y69.334
X45.176Y69.175
X44.757Y69.063
G2X44.221Y68.805I-0.946J1.275
G1X44.219Y68.803
X44.144Y68.728
X44.069Y68.653
G2X43.543Y68.282I-1.159J1.084
G1X43.393Y68.207
X43.006Y68.050
X42.867Y67.901
X42.791Y67.826
X42.716Y67.751
G2X42.321Y67.444I-1.159J1.084
G1X41.965Y67.230
X41.815Y67.155
X41.665Y67.079
G2X41.189Y66.903I-0.784J1.380
G1X40.894Y66.693
X40.537Y66.478
X40.387Y66.403
X40.237Y66.328
X40.086Y66.253
X39.690Y66.094
X39.294Y65.985
X39.184Y65.872
X39.109Y65.797
X39.034Y65.722
X38.959Y65.647
X38.884Y65.572
G2X38.489Y65.265I-1.159J1.084
G1X38.133Y65.050
X37.982Y64.975
X37.832Y64.900
G2X37.048Y64.693I-0.784J1.380
G1X36.770
X36.554Y64.445
X36.399Y64.299
X36.254Y64.144
X36.178Y64.069
X35.981Y63.891
G2X35.352Y63.397I-1.263J0.962
G1X35.124Y63.290
X34.901Y63.172
X34.751Y63.097
X34.355Y62.938
X33.964Y62.830
X33.635Y62.577
X33.623Y62.566
X33.548Y62.491
X33.473Y62.416
G2X32.947Y62.045I-1.159J1.084
G0Z5.080
G0X0.000Y61.265
G1Z-5.000F300.0
G1Y0.058F1000.0
X0.004Y0.004
X0.058Y0.000
X63.442
X63.496Y0.004
X63.500Y0.058
Y88.842
X63.496Y88.896
X63.442Y88.900
X39.387
Y88.524
G2X39.264Y87.911I-1.588J0.000
G2X38.965Y87.309I-1.539J0.388
G2X38.658Y86.914I-1.391J0.765
G1X38.583Y86.839
X38.508Y86.764
X38.433Y86.688
G2X37.907Y86.317I-1.159J1.084
G2X37.123Y86.110I-0.784J1.380
G1X36.747
G2X36.134Y86.233I0.000J1.587
G2X35.532Y86.532I0.388J1.539
G2X34.905Y87.158I0.765J1.391
G1X34.691Y87.515
G2X34.484Y88.266I1.380J0.784
G2X34.408Y88.750I1.512J0.484
G1Y88.900
X0.058
X0.004Y88.896
X0.000Y88.842
Y69.657
X0.237Y69.720
X0.438Y69.851
X0.632Y69.984
X0.644Y69.995
X0.719Y70.070
X0.794Y70.145
G2X1.312Y70.513I1.159J-1.084
G1X1.320Y70.521
X1.396Y70.596
X1.471Y70.671
X1.546Y70.746
G2X2.072Y71.118I1.159J-1.084
G1X2.222Y71.193
X2.364Y71.264
X2.692Y71.504
G2X3.294Y71.803I0.990J-1.241
G1X3.395Y71.841
X3.500Y71.949
X3.575Y72.024
X3.650Y72.099
G2X4.176Y72.470I1.159J-1.084
G1X4.326Y72.545
X4.600Y72.668
G2X4.994Y72.917I1.036J-1.203
G1X5.003Y72.926
G2X5.367Y73.215I1.159J-1.084
G1X5.378Y73.226
X5.454Y73.301
X5.529Y73.377
X5.604Y73.452
X5.679Y73.527
X5.754Y73.602
X5.829Y73.677
X5.904Y73.752
G2X6.430Y74.124I1.159J-1.084
G1X6.580Y74.199
X6.731Y74.274
X6.833Y74.327
G2X7.182Y74.804I1.434J-0.682
G1X7.257Y74.880
X7.332Y74.955
X7.407Y75.030
X7.483Y75.105
X7.558Y75.180
X7.633Y75.255
G2X8.028Y75.562I1.159J-1.084
G1X8.189Y75.676
X8.459Y76.007
X8.471Y76.019
G2X8.760Y76.383I1.374J-0.796
G1X8.835Y76.458
X8.910Y76.533
X8.985Y76.608
G2X9.511Y76.979I1.159J-1.084
G1X9.522Y76.985
X9.662Y77.134
X9.737Y77.209
X9.812Y77.284
X9.887Y77.359
G2X10.251Y77.649I1.159J-1.084
G1X10.263Y77.660
G2X10.627Y77.950I1.159J-1.084
G1X10.648Y77.969
X10.875Y78.273
X11.098Y78.571
X11.169Y78.713
X11.245Y78.863
X11.320Y79.013
G2X11.691Y79.539I1.455J-0.634
G1X11.773Y79.621
G2X12.078Y80.077I1.453J-0.640
G1X12.303Y80.377
G2X12.593Y80.741I1.374J-0.796
G2X13.118Y81.112I1.159J-1.084
G1X13.269Y81.187
G2X13.764Y81.368I0.784J-1.380
G2X14.507Y81.680I0.965J-1.260
G1X14.546Y81.718
X14.622Y81.793
X14.697Y81.868
X14.772Y81.944
G2X15.298Y82.315I1.159J-1.084
G2X15.779Y82.493I0.784J-1.380
G1X15.904Y82.771
G2X16.275Y83.296I1.455J-0.634
G1X16.350Y83.371
X16.425Y83.446
G2X16.820Y83.753I1.159J-1.084
G1X17.176Y83.968
X17.327Y84.043
G2X18.111Y84.250I0.784J-1.380
G1X18.787
G2X19.284Y84.170I0.000J-1.587
G2X20.322Y83.672I-0.121J-1.583
G1X20.397Y83.597
X20.472Y83.522
X20.548Y83.446
G2X21.051Y82.287I-1.084J-1.159
G1Y81.911
G2X20.752Y80.985I-1.588J0.000
G1X20.618Y80.676
X20.543Y80.526
X20.468Y80.376
G2X20.097Y79.850I-1.455J0.634
G1X20.022Y79.775
X19.946Y79.700
G2X19.421Y79.329I-1.159J1.084
G2X18.947Y79.152I-0.784J1.380
G1Y79.131
G2X18.823Y78.517I-1.588J0.000
G1X18.779Y78.372
G2X18.589Y77.821I-1.570J0.233
G1X18.514Y77.670
G2X18.143Y77.145I-1.455J0.634
G1X18.068Y77.070
X17.993Y76.994
X17.885Y76.889
X17.763Y76.618
G2X17.391Y76.093I-1.455J0.634
G1X17.316Y76.017
X17.241Y75.942
X17.166Y75.867
X17.017Y75.727
X17.011Y75.716
X16.936Y75.566
X16.861Y75.416
X16.646Y75.060
G2X16.339Y74.665I-1.391J0.765
G1X16.264Y74.590
X16.189Y74.514
X16.114Y74.439
X16.039Y74.364
X15.964Y74.289
X15.888Y74.214
X15.813Y74.139
X15.738Y74.064
X15.468Y73.833
X15.367Y73.483
X15.214Y73.098
G2X14.918Y72.505I-1.537J0.397
G1X14.907Y72.485
X14.889Y72.445
Y72.217
G2X14.765Y71.604I-1.588J0.000
G1X14.690Y71.378
X14.548Y71.012
G2X15.513Y70.521I-0.195J-1.576
G1X15.588Y70.446
X15.663Y70.371
G2X16.149Y69.444I-1.084J-1.159
G1X16.193Y69.299
X16.285Y68.998
G2X16.635Y68.492I-1.106J-1.139
G1X16.794Y68.096
G2X16.918Y67.483I-1.464J-0.613
G1Y66.882
X16.888Y66.574
X17.086Y66.238
X17.245Y65.842
G2X17.369Y65.228I-1.464J-0.613
G1Y64.928
G2X17.276Y64.394I-1.588J0.000
G2X17.086Y63.843I-1.570J0.233
G2X16.732Y63.334I-1.455J0.634
G2X17.166Y63.006I-0.726J-1.412
G1X17.241Y62.931
X17.316Y62.856
X17.391Y62.781
G2X17.726Y62.332I-1.084J-1.159
G1X17.993Y62.104
X18.068Y62.029
X18.143Y61.954
X18.218Y61.879
X18.329Y61.764
G2X18.740Y61.203I-1.045J-1.195
G1X18.815Y61.053
G2X19.022Y60.269I-1.380J-0.784
G1Y60.043
G2X18.815Y59.259I-1.588J0.000
G1X18.740Y59.109
G2X18.049Y58.351I-1.455J0.634
G1X17.692Y58.137
G2X16.908Y57.930I-0.784J1.380
G1X16.822
X16.771Y57.901
G2X16.178Y57.604I-0.990J1.241
G1X15.925Y57.491
X15.888Y57.456
X15.813Y57.381
X15.738Y57.306
G2X15.213Y56.934I-1.159J1.084
G1X15.062Y56.859
X14.912Y56.784
X14.762Y56.709
X14.611Y56.634
X14.461Y56.559
X14.311Y56.484
X14.160Y56.408
X13.764Y56.249
X13.384Y56.143
X13.238Y56.099
X13.013Y56.024
X12.787Y55.949
X12.562Y55.874
G2X12.070Y55.755I-0.613J1.464
G1X11.961Y55.723
X11.735Y55.648
X11.510Y55.573
X11.284Y55.498
X11.068Y55.425
X10.692Y55.275
X10.307Y55.122
X10.082Y55.047
X9.866Y54.974
X9.481Y54.822
X9.100Y54.715
X8.688Y54.628
G2X8.191Y54.548I-0.497J1.508
G1X7.891
G2X7.277Y54.671I0.000J1.587
G2X6.506Y55.126I0.388J1.539
G1X6.430Y55.201
X6.355Y55.277
G2X5.852Y56.436I1.084J1.159
G1Y57.112
G2X5.944Y57.646I1.588J0.000
G2X6.134Y58.197I1.570J-0.233
G1X6.349Y58.553
X6.499Y58.779
X6.510Y58.798
X6.725Y59.155
G2X7.032Y59.549I1.391J-0.765
G1X7.107Y59.625
X7.182Y59.700
X7.193Y59.711
X7.419Y60.012
G2X7.708Y60.376I1.374J-0.796
G1X7.783Y60.451
X7.858Y60.526
G2X8.384Y60.897I1.159J-1.084
G1X8.534Y60.973
G2X9.047Y61.157I0.784J-1.380
G1X9.058Y61.162
X9.286Y61.428
X9.361Y61.503
X9.436Y61.578
X9.512Y61.654
G2X10.037Y62.025I1.159J-1.084
G1X10.179Y62.096
X10.188Y62.104
X10.263Y62.180
X10.338Y62.255
G2X10.857Y62.623I1.159J-1.084
G1X10.939Y62.706
X11.014Y62.781
X11.090Y62.856
G2X11.484Y63.163I1.159J-1.084
G1X11.520Y63.190
X11.122
X10.760Y63.232
X10.628Y63.092
X10.553Y63.017
G2X9.781Y62.562I-1.159J1.084
G2X9.168Y62.439I-0.613J1.464
G1X9.018
X8.743Y62.462
X8.601Y62.417
X8.599Y62.416
X8.524Y62.341
G2X7.998Y61.969I-1.159J1.084
G2X7.447Y61.779I-0.784J1.380
G2X6.991Y61.689I-0.533J1.495
G1X6.946Y61.669
G2X6.162Y61.462I-0.784J1.380
G1X5.711
X5.356Y61.502
X5.293Y61.439
G2X4.767Y61.068I-1.159J1.084
G1X4.617Y60.992
X4.466Y60.917
G2X3.682Y60.710I-0.784J1.380
G1X3.081
G2X2.598Y60.785I0.000J1.587
G1X2.330
G2X1.833Y60.865I0.000J1.587
G2X1.170Y61.068I0.121J1.583
G1X0.834Y61.266
X0.526Y61.236
X0.301
X0.000Y61.265
G0Z5.080
G0X63.460Y0.001
G1Z-6.000F300.0
G1X0.040F1000.0
X0.004Y0.004
X0.000Y0.058
Y2.224
X63.500
Y4.446
X0.000
Y6.669
X63.500
Y8.891
X0.000
Y11.114
X63.500
Y13.336
X0.000
Y15.559
X63.500
Y17.781
X0.000
Y20.004
X63.500
Y22.226
X0.000
Y24.449
X63.500
Y26.671
X29.326
X29.421Y26.815
X29.540Y26.986
X29.636Y27.171
X29.711Y27.321
X29.786Y27.472
X29.861Y27.622
X29.937Y27.772
X30.012Y27.922
X30.087Y28.073
X30.162Y28.223
X30.237Y28.373
X30.312Y28.524
X30.387Y28.674
X30.459Y28.816
X30.467Y28.825
X30.532Y28.894
X63.500
Y31.116
X32.383
X32.421Y31.154
X32.496Y31.229
X32.571Y31.304
X32.646Y31.380
X32.722Y31.455
X32.880Y31.626
X33.011Y31.819
X33.022Y31.830
X33.138Y31.951
X33.241Y32.083
X33.329Y32.225
X33.448Y32.396
X33.544Y32.582
X33.619Y32.732
X33.694Y32.882
X33.769Y33.032
X33.844Y33.183
X33.850Y33.194
X33.999Y33.333
X34.004Y33.339
X63.500
Y35.561
X36.068
X36.136Y35.641
X36.238Y35.794
X36.321Y35.957
X36.404Y36.039
X36.479Y36.114
X36.595Y36.234
X36.698Y36.367
X36.786Y36.509
X36.919Y36.703
X36.930Y36.715
X37.046Y36.836
X37.149Y36.968
X37.237Y37.110
X37.370Y37.304
X37.381Y37.316
X37.456Y37.391
X37.603Y37.549
X37.728Y37.726
X37.758Y37.784
X63.500
Y40.006
X39.620
X39.635Y40.022
X39.710Y40.097
X39.786Y40.172
X39.861Y40.247
X39.936Y40.322
X40.011Y40.397
X40.086Y40.472
X40.161Y40.548
X40.236Y40.623
X40.312Y40.698
X40.387Y40.773
X40.462Y40.848
X40.537Y40.923
X40.695Y41.095
X40.826Y41.287
X40.959Y41.445
X41.069Y41.619
X41.202Y41.813
X41.213Y41.825
X41.288Y41.900
X41.364Y41.975
X41.439Y42.051
X41.586Y42.208
X41.600Y42.229
X63.500
Y44.451
X42.318
Y44.713
X42.303Y44.926
X42.260Y45.138
X42.186Y45.345
X42.086Y45.540
X41.960Y45.717
X41.815Y45.872
X41.739Y45.948
X41.584Y46.093
X41.406Y46.219
X41.212Y46.320
X41.005Y46.393
X40.793Y46.437
X40.580Y46.451
X40.279
X40.076Y46.438
X39.874Y46.398
X39.679Y46.333
X39.495Y46.244
X39.345Y46.169
X39.154Y46.069
X38.977Y45.944
X38.819Y45.797
X38.810Y45.789
X38.622Y45.690
X38.448Y45.567
X38.293Y45.422
X38.281Y45.410
X38.089Y45.279
X37.917Y45.121
X37.771Y44.965
X37.647Y44.790
X37.380Y44.584
X37.187Y44.453
X37.186Y44.451
G0Z5.080
G0X0.000Y26.671
G1Z-6.000F300.0
G1X24.345F1000.0
X24.320Y26.720
X24.245Y26.870
X24.156Y27.054
X24.091Y27.249
X24.051Y27.451
X24.038Y27.654
Y28.105
X24.052Y28.314
X24.093Y28.521
X24.161Y28.719
X24.218Y28.894
X0.000
Y31.116
X26.340
X26.495Y31.294
X26.615Y31.410
X26.748Y31.513
X26.890Y31.601
X27.169Y31.779
X27.397Y32.045
X27.472Y32.120
X27.547Y32.196
X27.622Y32.271
X27.796Y32.431
X27.992Y32.563
X28.205Y32.665
X28.219Y32.701
X28.263Y32.847
X28.303Y33.034
X28.364Y33.215
X28.424Y33.339
X0.000
Y35.561
X29.787
X29.801Y35.577
X29.877Y35.652
X29.888Y35.664
X29.992Y35.821
X30.113Y35.965
X30.246Y36.159
X30.356Y36.331
X30.486Y36.488
X30.558Y36.630
X30.657Y36.821
X30.782Y36.998
X30.929Y37.155
X31.004Y37.230
X31.079Y37.306
X31.154Y37.381
X31.229Y37.456
X31.304Y37.531
X31.316Y37.543
X31.447Y37.735
X31.491Y37.784
X0.000
Y40.006
X33.211
X33.252Y40.067
X33.402Y40.292
X33.490Y40.435
X33.593Y40.567
X33.709Y40.687
X33.784Y40.762
X33.859Y40.838
X33.935Y40.913
X34.010Y40.988
X34.085Y41.063
X34.351Y41.291
X34.390Y41.364
X34.465Y41.514
X34.561Y41.699
X34.680Y41.871
X34.768Y42.013
X34.871Y42.145
X34.951Y42.229
X0.000
Y44.451
X37.186
G0Z5.080
G0X0.000Y46.674
G1Z-6.000F300.0
G1X44.271F1000.0
X44.279Y46.665
X44.470Y46.525
X44.677Y46.415
X44.891Y46.339
X45.105Y46.296
X45.314Y46.282
X45.690
X45.899Y46.296
X46.105Y46.337
X46.303Y46.405
X46.501Y46.469
X46.688Y46.558
X46.887Y46.623
X46.991Y46.674
X63.500
Y48.896
X50.382
X50.464Y48.985
X50.596Y49.178
X50.607Y49.190
X50.765Y49.361
X50.896Y49.554
X50.907Y49.565
X50.983Y49.641
X51.058Y49.716
X51.133Y49.791
X51.145Y49.802
X51.344Y49.938
X51.564Y50.012
X51.789Y50.087
X52.017Y50.163
X52.232Y50.274
X52.427Y50.415
X52.754
X52.957Y50.428
X53.159Y50.468
X53.354Y50.533
X53.538Y50.622
X53.710Y50.709
X53.869Y50.817
X54.063Y50.866
X54.252Y50.940
X54.430Y51.037
X54.542Y51.119
X63.500
Y53.341
X55.604
X55.566Y53.535
X55.501Y53.730
X55.412Y53.914
X55.337Y54.064
X55.227Y54.272
X55.085Y54.464
X54.915Y54.634
X54.723Y54.776
X54.515Y54.886
X54.365Y54.961
X54.181Y55.050
X53.986Y55.115
X53.784Y55.155
X53.580Y55.168
X53.280
X53.071Y55.154
X52.865Y55.113
X52.667Y55.045
X52.446Y54.972
X52.239Y54.867
X52.228
X52.024Y54.854
X51.822Y54.815
X51.627Y54.749
X51.444Y54.660
X51.293Y54.585
X51.112Y54.492
X50.950
X50.747Y54.479
X50.545Y54.439
X50.350Y54.374
X50.166Y54.284
X50.078Y54.243
X49.870Y54.192
X49.671Y54.114
X49.439Y54.086
X49.214Y54.024
X49.011Y53.980
X48.814Y53.909
X48.628Y53.813
X48.457Y53.694
X48.438Y53.683
X48.253Y53.588
X48.082Y53.469
X47.939Y53.381
X47.889Y53.341
G0Z5.080
G0X0.000Y48.896
G1Z-6.000F300.0
G1X43.869F1000.0
X43.882Y48.931
X44.003Y49.141
X44.154Y49.329
X44.328Y49.489
X44.519Y49.619
X44.530Y49.630
X44.606Y49.705
X44.720Y49.816
X44.831Y49.930
X44.906Y50.006
X44.981Y50.081
X45.056Y50.156
X45.132Y50.231
X45.207Y50.306
X45.282Y50.381
X45.357Y50.457
X45.432Y50.532
X45.507Y50.607
X45.519Y50.619
X45.650Y50.811
X45.808Y50.983
X45.819Y50.994
X45.904Y51.119
X0.000
Y53.341
X47.889
G0Z5.080
G0X0.000Y55.564
G1Z-6.000F300.0
G1X4.052F1000.0
X4.063Y55.397
X4.107Y55.184
X4.180Y54.977
X4.281Y54.783
X4.406Y54.606
X4.552Y54.450
X4.627Y54.375
X4.784Y54.228
X4.961Y54.103
X5.153Y54.004
X5.345Y53.911
X5.549Y53.845
X5.747Y53.777
X5.953Y53.735
X6.162Y53.721
X6.281
X6.519Y53.665
X6.763Y53.646
X7.515
X7.724Y53.660
X7.930Y53.701
X8.128Y53.769
X8.274Y53.814
X8.467Y53.855
X8.654Y53.920
X8.880Y53.995
X9.077Y54.059
X9.264Y54.148
X9.481Y54.220
X9.684Y54.287
X9.877Y54.379
X10.027Y54.455
X10.166Y54.523
X10.365Y54.589
X10.553Y54.680
X10.704Y54.755
X10.854Y54.830
X11.004Y54.905
X11.143Y54.974
X11.280Y55.016
X11.466Y55.055
X11.648Y55.117
X11.819Y55.200
X12.036Y55.272
X12.181Y55.317
X12.482Y55.392
X12.669Y55.431
X12.850Y55.493
X12.998Y55.564
X63.500
Y57.786
X18.390
X18.519Y57.907
X18.594Y57.982
X18.740Y58.138
X18.864Y58.313
X19.039Y58.437
X19.195Y58.583
X19.270Y58.658
X19.386Y58.779
X19.489Y58.911
X19.577Y59.053
X19.698Y59.227
X19.795Y59.418
X19.867Y59.622
X19.909Y59.832
X19.921Y60.009
X21.127
X21.089Y60.086
X21.000Y60.269
X20.934Y60.464
X20.895Y60.666
X20.882Y60.870
Y61.095
X20.895Y61.299
X20.934Y61.501
X21.000Y61.696
X21.089Y61.879
X21.188Y62.071
X21.302Y62.231
X18.910
X18.792Y62.323
X18.650Y62.411
X18.489Y62.524
X18.315Y62.617
X18.130Y62.687
X17.939Y62.733
X17.848Y62.886
X17.740Y63.028
X17.617Y63.157
X17.542Y63.232
X17.467Y63.307
X17.206Y63.531
X17.305Y63.682
X17.387Y63.843
X17.476Y64.027
X17.541Y64.222
X17.581Y64.424
X17.583Y64.454
X25.965
X26.009Y64.484
X26.194Y64.580
X26.344Y64.655
X26.495Y64.730
X26.670Y64.816
X26.855Y64.880
X27.046Y64.920
X27.249Y64.978
X27.458Y65.008
X27.567Y65.039
X27.625Y65.062
X27.847Y65.181
X28.052Y65.279
X28.270Y65.346
X28.494Y65.382
X28.524Y65.411
X28.599Y65.486
X28.720Y65.602
X28.852Y65.705
X28.994Y65.793
X29.219Y65.943
X29.390Y66.062
X29.576Y66.158
X29.747Y66.242
X29.928Y66.305
X30.114Y66.346
X30.307Y66.450
X30.514Y66.526
X30.728Y66.573
X31.029Y66.648
X31.120Y66.676
X17.400
X17.429Y66.814
X17.444Y67.032
Y67.558
X17.431Y67.762
X17.391Y67.963
X17.326Y68.159
X17.237Y68.342
X17.161Y68.492
X16.995Y68.785
X16.964Y68.875
X16.977Y68.899
X35.093
X35.137Y68.943
X35.212Y69.018
X35.287Y69.093
X35.362Y69.168
X35.438Y69.243
X35.513Y69.319
X35.588Y69.394
X35.663Y69.469
X35.821Y69.616
X35.997Y69.741
X36.189Y69.840
X36.339Y69.915
X36.497Y69.994
X36.663Y70.054
X36.834Y70.096
X36.990Y70.201
X37.157Y70.287
X37.166Y70.296
X37.241Y70.371
X37.316Y70.446
X37.488Y70.604
X37.680Y70.735
X37.692Y70.746
X37.812Y70.862
X37.945Y70.965
X38.087Y71.053
X38.184Y71.121
X16.853
X16.815Y71.170
X16.647Y71.333
X16.461Y71.466
X16.265Y71.569
X16.114Y71.644
X15.919Y71.738
X15.711Y71.805
X15.497Y71.842
X15.438Y71.869
X15.411Y71.884
X15.415Y71.992
Y72.370
X15.433Y72.410
X15.508Y72.560
X15.583Y72.711
X15.676Y72.903
X15.742Y73.107
X15.817Y73.332
X15.821Y73.344
X42.557
X42.650Y73.375
X42.652Y73.377
X42.727Y73.452
X42.802Y73.527
X42.877Y73.602
X42.998Y73.718
X43.130Y73.821
X43.272Y73.909
X43.443Y74.028
X43.628Y74.124
X43.843Y74.225
X43.953Y74.371
X44.080Y74.504
X44.155Y74.579
X44.230Y74.654
X44.305Y74.729
X44.476Y74.887
X44.669Y75.019
X44.854Y75.171
Y75.566
X17.388
X17.413Y75.662
X17.467Y75.717
X17.542Y75.792
X17.617Y75.867
X17.741Y75.997
X17.850Y76.140
X17.941Y76.294
X18.095Y76.386
X18.239Y76.495
X18.368Y76.619
X18.484Y76.739
X18.587Y76.871
X18.675Y77.013
X18.794Y77.184
X18.890Y77.370
X18.961Y77.568
X19.005Y77.771
X19.010Y77.789
X45.353
X45.437Y77.961
X45.536Y78.152
X45.661Y78.329
X45.808Y78.487
X45.883Y78.562
X45.958Y78.637
X45.960Y78.639
X46.024Y78.831
X46.113Y79.013
X46.133Y79.058
X46.162Y79.289
X46.224Y79.514
X46.264Y79.705
X46.328Y79.890
X46.387Y80.011
X20.577
X20.606Y80.054
X20.690Y80.217
X20.698Y80.226
X20.773Y80.301
X20.848Y80.376
X20.984Y80.519
X21.101Y80.679
X21.196Y80.851
X21.267Y80.850
X21.868
X22.072Y80.863
X22.274Y80.902
X22.469Y80.968
X22.652Y81.057
X22.802Y81.132
X22.994Y81.231
X23.171Y81.356
X23.328Y81.503
X23.475Y81.661
X23.600Y81.838
X23.699Y82.029
X23.792Y82.222
X23.796Y82.234
X46.649
X46.599Y82.430
X46.524Y82.730
X46.473Y82.904
X46.442Y83.083
X46.432Y83.264
Y83.533
X46.376Y83.771
X46.357Y84.015
Y84.456
X23.628
X23.550Y84.566
X23.403Y84.724
X23.328Y84.799
X23.171Y84.946
X22.994Y85.071
X22.802Y85.170
X22.627Y85.256
X22.442Y85.320
X22.251Y85.360
X22.078Y85.411
X21.899Y85.442
X21.718Y85.453
X21.643
X21.398Y85.434
X21.159Y85.377
X20.964Y85.361
X20.770Y85.321
X20.584Y85.256
X20.408Y85.170
X20.257Y85.095
X20.107Y85.020
X19.965Y84.929
X19.834Y84.824
X19.538Y84.851
X19.088
X18.879Y84.838
X18.672Y84.796
X18.474Y84.728
X18.188Y84.626
X17.960
X17.757Y84.613
X17.555Y84.573
X17.360Y84.508
X17.253Y84.456
G0Z5.080
G0X44.347Y86.678
G1Z-6.000F300.0
G1X47.085F1000.0
G0Z5.080
G0X29.326Y60.009
G1Z-6.000F300.0
G1X63.500F1000.0
Y62.231
X34.118
X34.187Y62.254
X34.375Y62.345
X34.526Y62.420
X34.676Y62.495
X34.861Y62.591
X35.032Y62.710
X35.052Y62.721
X35.237Y62.816
X35.408Y62.935
X35.427Y62.946
X35.578Y63.021
X35.728Y63.097
X35.913Y63.192
X36.084Y63.311
X36.310Y63.461
X36.329Y63.472
X36.479Y63.547
X36.665Y63.643
X36.836Y63.762
X37.061Y63.912
X37.235Y64.023
X37.393Y64.155
X37.587Y64.288
X37.607Y64.299
X37.757Y64.374
X37.911Y64.454
X63.500
Y66.676
X41.683
X41.740Y66.704
X41.890Y66.779
X42.040Y66.854
X42.226Y66.950
X42.397Y67.069
X42.622Y67.219
X42.809Y67.340
X42.978Y67.486
X43.243Y67.605
X43.393Y67.681
X43.578Y67.776
X43.749Y67.895
X43.975Y68.045
X44.200Y68.196
X44.426Y68.346
X44.445Y68.357
X44.595Y68.432
X44.746Y68.507
X44.896Y68.582
X45.035Y68.651
X45.234Y68.717
X45.422Y68.808
X45.598Y68.899
X63.500
Y71.121
X48.416
X48.428Y71.133
X48.503Y71.208
X48.578Y71.283
X48.653Y71.358
X48.728Y71.433
X48.803Y71.509
X48.878Y71.584
X48.954Y71.659
X49.029Y71.734
X49.104Y71.809
X49.179Y71.884
X49.254Y71.959
X49.329Y72.035
X49.404Y72.110
X49.480Y72.185
X49.555Y72.260
X49.630Y72.335
X49.705Y72.410
X49.780Y72.485
X49.855Y72.561
X49.971Y72.681
X50.074Y72.813
X50.162Y72.955
X50.281Y73.127
X50.377Y73.312
X50.393Y73.344
X63.500
Y75.566
X51.479
X51.485Y75.641
X51.546Y75.909
X51.691Y76.103
X51.805Y76.318
X51.880Y76.468
X51.955Y76.618
X52.030Y76.769
X52.041Y76.788
X52.160Y76.959
X52.255Y77.144
X52.347Y77.333
X52.412Y77.531
X52.499Y77.713
X52.524Y77.789
X63.500
Y80.011
X52.862
X52.932Y80.150
X53.031Y80.360
X53.100Y80.583
X53.134Y80.813
X53.178Y80.975
X53.205Y81.142
X53.214Y81.310
Y81.654
X53.260Y81.833
X53.285Y82.015
X53.334Y82.201
X53.338Y82.234
X63.500
Y84.456
X53.318
X53.302Y84.530
X53.229Y84.731
X53.130Y84.921
X53.006Y85.096
X52.861Y85.250
X52.786Y85.325
X52.711Y85.400
X52.636Y85.475
X52.561Y85.551
X52.405Y85.696
X52.228Y85.822
X52.033Y85.923
X51.827Y85.996
X51.614Y86.039
X51.401Y86.054
X51.255
X51.168Y86.211
X51.064Y86.358
X50.943Y86.546
X50.829Y86.678
X63.500
Y88.842
X63.496Y88.896
X63.460Y88.899
X43.080
G0Z5.080
G0X12.130Y82.234
G1Z-6.000F300.0
G1X12.997F1000.0
G0Z5.080
G0X0.000Y71.121
G1Z-6.000F300.0
G1X1.395F1000.0
X1.396Y71.122
X1.553Y71.269
X1.730Y71.394
X1.921Y71.493
X2.072Y71.569
X2.336Y71.688
X2.505Y71.834
X2.692Y71.955
X2.863Y72.074
X3.048Y72.170
X3.231Y72.258
X3.423Y72.323
X3.425Y72.325
X3.500Y72.400
X3.575Y72.475
X3.732Y72.622
X3.909Y72.747
X4.101Y72.846
X4.251Y72.921
X4.393Y72.993
X4.535Y73.113
X4.690Y73.215
X4.834Y73.337
X4.844Y73.344
X0.000
Y75.566
X7.343
X7.407Y75.631
X7.563Y75.777
X7.738Y75.900
X7.926Y75.999
X8.009Y76.082
X8.084Y76.157
X8.159Y76.232
X8.234Y76.307
X8.245Y76.319
X8.378Y76.514
X8.499Y76.701
X8.647Y76.872
X8.817Y77.019
X9.005Y77.140
X9.176Y77.259
X9.361Y77.355
X9.372Y77.361
X9.512Y77.510
X9.587Y77.585
X9.662Y77.660
X9.737Y77.735
X9.793Y77.789
X4.206
X4.241Y77.821
X4.316Y77.896
X4.391Y77.971
X4.466Y78.046
X4.541Y78.122
X4.616Y78.197
X4.763Y78.354
X4.888Y78.531
X4.987Y78.722
X5.077Y78.906
X5.142Y79.101
X5.181Y79.303
X5.195Y79.507
Y79.957
X5.191Y80.011
X9.281
X9.216Y80.081
X9.090Y80.258
X8.989Y80.453
X8.916Y80.659
X8.872Y80.872
X8.858Y81.085
Y81.310
X8.872Y81.523
X8.916Y81.735
X8.989Y81.942
X9.090Y82.137
X9.159Y82.234
X0.000
Y84.456
X17.253
G0Z5.080
G0X0.000Y86.678
G1Z-6.000F300.0
G1X26.295F1000.0
X26.305Y86.517
X26.345Y86.315
X26.410Y86.120
X26.500Y85.937
X26.599Y85.745
X26.724Y85.568
X26.871Y85.411
X27.028Y85.264
X27.205Y85.139
X27.396Y85.040
X27.580Y84.951
X27.775Y84.885
X27.977Y84.846
X28.180Y84.833
X28.707
X28.887Y84.843
X29.066Y84.874
X29.240Y84.925
X29.431Y84.965
X29.616Y85.029
X29.791Y85.115
X29.976Y85.210
X30.147Y85.329
X30.339Y85.453
X30.511Y85.604
X30.659Y85.777
X30.843Y85.866
X31.035Y85.966
X31.211Y86.091
X31.369Y86.238
X31.444Y86.313
X31.519Y86.388
X31.594Y86.463
X31.670Y86.538
X31.800Y86.678
X34.857
X34.840Y86.696
X34.715Y86.873
X34.616Y87.064
X34.605Y87.083
X34.477Y87.269
X34.377Y87.472
X34.306Y87.685
X34.231Y87.911
X34.163Y88.109
X34.122Y88.315
X34.108Y88.524
Y88.899
X32.097
G0Z5.080
G0X4.818Y57.786
G1Z-6.000F300.0
G1X0.000F1000.0
Y60.009
X6.680
G0Z5.080
G0X27.362Y88.899
G1Z-6.000F300.0
G1X0.040F1000.0
G0Z5.080
G0X0.058Y0.000
G1Z-6.000F300.0
G1X63.442F1000.0
X63.496Y0.004
X63.500Y0.058
Y88.842
X63.496Y88.896
X63.442Y88.900
X43.077
G2X43.543Y88.557I-0.694J-1.428
G1X43.618Y88.481
X43.693Y88.406
G2X44.000Y88.011I-1.084J-1.159
G2X44.347Y87.021I-1.241J-0.990
G1Y86.646
G2X43.844Y85.486I-1.588J0.000
G1X43.768Y85.411
X43.693Y85.336
G2X42.922Y84.881I-1.159J1.084
G2X42.308Y84.757I-0.613J1.464
G1X41.782
G2X41.169Y84.881I0.000J1.587
G2X40.741Y85.058I0.388J1.539
G1X40.580
G2X39.796Y85.265I0.000J1.588
G1X39.645Y85.340
X39.495Y85.416
G2X38.970Y85.787I0.634J1.455
G1X38.894Y85.862
G2X38.542Y86.346I1.084J1.159
G2X38.057Y86.017I-1.118J1.127
G1X37.661Y85.858
G2X37.048Y85.734I-0.613J1.464
G1X36.822
G2X36.326Y85.814I0.000J1.587
G2X35.457Y86.156I0.121J1.583
G2X35.062Y86.463I0.765J1.391
G1X34.987Y86.538
G2X34.616Y87.064I1.084J1.159
G1X34.605Y87.083
G2X34.306Y87.685I1.241J0.990
G1X34.231Y87.911
G2X34.108Y88.524I1.464J0.613
G1Y88.900
X32.097
G2X32.248Y88.224I-1.436J-0.676
G1Y87.848
G2X32.041Y87.064I-1.588J0.000
G2X31.670Y86.538I-1.455J0.634
G1X31.594Y86.463
X31.519Y86.388
X31.444Y86.313
X31.369Y86.238
G2X30.843Y85.866I-1.159J1.084
G1X30.659Y85.777
G2X30.147Y85.329I-1.277J0.944
G1X29.791Y85.115
G2X29.240Y84.925I-0.784J1.380
G2X28.707Y84.833I-0.533J1.495
G1X28.180
G2X27.396Y85.040I0.000J1.587
G2X26.871Y85.411I0.634J1.455
G2X26.500Y85.937I1.084J1.159
G2X26.292Y86.721I1.380J0.784
G1Y86.946
G2X26.500Y87.730I1.588J0.000
G1X26.575Y87.881
X26.650Y88.031
G2X27.021Y88.557I1.455J-0.634
G1X27.096Y88.632
X27.171Y88.707
X27.246Y88.782
X27.322Y88.857
X27.363Y88.900
X0.058
X0.004Y88.896
X0.000Y88.842
Y81.455
X0.237Y81.518
X0.569Y81.713
X0.719Y81.789
X0.869Y81.864
X1.019Y81.939
G2X1.804Y82.146I0.784J-1.380
G1X2.373
G2X2.856Y82.221I0.483J-1.512
G1X3.231
G2X4.015Y82.014I0.000J-1.587
G2X4.541Y81.643I-0.634J-1.455
G2X5.036Y80.650I-1.084J-1.159
G2X5.195Y79.957I-1.428J-0.693
G1Y79.507
G2X4.987Y78.722I-1.588J0.000
G2X4.616Y78.197I-1.455J0.634
G1X4.541Y78.122
X4.466Y78.046
X4.391Y77.971
X4.316Y77.896
X4.241Y77.821
G2X3.715Y77.450I-1.159J1.084
G2X2.964Y77.243I-0.784J1.380
G1X2.646Y77.176
X2.588Y77.149
X2.437Y77.074
X2.050Y76.917
G2X1.548Y76.740I-0.773J1.387
G1X1.224Y76.617
X0.839Y76.464
G2X0.225Y76.341I-0.613J1.464
G1X0.000
Y69.953
G2X0.485Y70.287I1.127J-1.118
G1X0.494Y70.296
X0.569Y70.371
G2X0.933Y70.660I1.159J-1.084
G1X0.945Y70.671
X1.020Y70.746
X1.095Y70.822
X1.170Y70.897
X1.245Y70.972
X1.320Y71.047
X1.396Y71.122
G2X1.921Y71.493I1.159J-1.084
G1X2.072Y71.569
X2.336Y71.688
X2.692Y71.955
X3.048Y72.170
X3.423Y72.323
X3.425Y72.325
X3.500Y72.400
X3.575Y72.475
G2X4.101Y72.846I1.159J-1.084
G1X4.251Y72.921
X4.393Y72.993
X4.690Y73.215
X4.991Y73.441
X5.259Y73.647
G2X5.818Y74.192I1.354J-0.828
G2X6.280Y74.499I1.096J-1.148
G1X6.478Y74.594
G2X6.742Y74.967I1.413J-0.724
G2X7.320Y75.545I1.374J-0.796
G1X7.332Y75.556
X7.407Y75.631
G2X7.926Y75.999I1.159J-1.084
G1X8.009Y76.082
X8.084Y76.157
X8.159Y76.232
X8.234Y76.307
X8.245Y76.319
X8.378Y76.514
G2X9.005Y77.140I1.391J-0.765
G1X9.361Y77.355
X9.372Y77.361
X9.512Y77.510
X9.587Y77.585
X9.662Y77.660
X9.737Y77.735
G2X10.164Y78.059I1.159J-1.084
G1X10.332Y78.317
X10.482Y78.543
G2X10.822Y78.968I1.391J-0.765
G2X11.083Y79.445I1.502J-0.513
G1X11.092Y79.460
X10.746Y79.422
X10.521
G2X9.361Y79.925I0.000J1.588
G2X8.858Y81.085I1.084J1.159
G1Y81.310
G2X9.361Y82.470I1.588J0.000
G2X10.521Y82.973I1.159J-1.084
G1X10.746
G2X11.906Y82.470I0.000J-1.587
G1X11.981Y82.394
G2X12.421Y81.679I-1.084J-1.159
G1X12.593Y81.868
X12.668Y81.944
X12.743Y82.019
G2X13.269Y82.390I1.159J-1.084
G1X13.424Y82.771
G2X13.795Y83.296I1.455J-0.634
G1X13.870Y83.371
X13.945Y83.446
X14.020Y83.522
G2X14.546Y83.893I1.159J-1.084
G1X14.942Y84.052
G2X15.556Y84.175I0.613J-1.464
G1X16.307
X16.638Y84.140
X16.876Y84.269
X17.026Y84.344
X17.176Y84.419
G2X17.960Y84.626I0.784J-1.380
G1X18.188
X18.474Y84.728
G2X19.088Y84.851I0.613J-1.464
G1X19.538
X19.834Y84.824
G2X20.257Y85.095I1.057J-1.184
G1X20.408Y85.170
G2X21.159Y85.377I0.784J-1.380
G2X21.643Y85.453I0.484J-1.512
G1X21.718
G2X22.251Y85.360I0.000J-1.587
G2X22.802Y85.170I-0.233J-1.570
G2X23.328Y84.799I-0.634J-1.455
G1X23.403Y84.724
G2X23.774Y84.198I-1.084J-1.159
G2X23.982Y83.414I-1.380J-0.784
G1Y83.038
G2X23.858Y82.425I-1.588J0.000
G1X23.699Y82.029
G2X23.328Y81.503I-1.455J0.634
G2X22.802Y81.132I-1.159J1.084
G1X22.652Y81.057
G2X21.868Y80.850I-0.784J1.380
G1X21.267
X21.196Y80.851
G2X20.848Y80.376I-1.433J0.684
G1X20.773Y80.301
X20.698Y80.226
X20.690Y80.217
G2X20.386Y79.763I-1.452J0.642
G2X20.097Y79.399I-1.374J0.796
G2X19.702Y79.092I-1.159J1.084
G2X19.218Y78.829I-0.990J1.241
G1X19.155Y78.597
X19.097Y78.348
Y78.304
G2X19.005Y77.771I-1.588J0.000
G2X18.675Y77.013I-1.570J0.233
G2X18.368Y76.619I-1.391J0.765
G2X17.941Y76.294I-1.159J1.084
G2X17.617Y75.867I-1.409J0.732
G1X17.542Y75.792
X17.467Y75.717
X17.413Y75.662
G2X17.237Y75.190I-1.556J0.313
G1X17.161Y75.040
G2X16.790Y74.514I-1.455J0.634
G2X16.404Y74.212I-1.159J1.084
G1X16.264Y74.064
X16.189Y73.988
X16.114Y73.913
X16.039Y73.838
X15.964Y73.763
X15.962Y73.761
X15.893Y73.558
X15.817Y73.332
X15.742Y73.107
X15.583Y72.711
X15.508Y72.560
X15.433Y72.410
X15.415Y72.370
Y71.992
X15.411Y71.884
X15.438Y71.869
X15.497Y71.842
G2X16.114Y71.644I-0.167J-1.579
G1X16.265Y71.569
G2X17.218Y70.113I-0.634J-1.455
G1Y69.737
G2X16.964Y68.875I-1.588J0.000
G1X16.995Y68.785
X17.161Y68.492
X17.237Y68.342
G2X17.444Y67.558I-1.380J-0.784
G1Y67.032
G2X17.309Y66.393I-1.588J0.000
G1X17.387Y66.238
G2X17.594Y65.454I-1.380J-0.784
G1Y64.627
G2X17.387Y63.843I-1.588J0.000
G1X17.206Y63.531
X17.467Y63.307
X17.542Y63.232
X17.617Y63.157
G2X17.939Y62.733I-1.084J-1.159
G2X18.650Y62.411I-0.279J-1.563
G2X19.045Y62.104I-0.765J-1.391
G1X19.120Y62.029
G2X19.491Y61.504I-1.084J-1.159
G1X19.625Y61.195
G2X19.924Y60.269I-1.289J-0.926
G1Y60.043
G2X19.577Y59.053I-1.588J0.000
G2X19.270Y58.658I-1.391J0.765
G1X19.195Y58.583
X18.864Y58.313
X18.594Y57.982
X18.519Y57.907
G2X17.993Y57.536I-1.159J1.084
G2X17.209Y57.328I-0.784J1.380
G1X16.683
X16.681
X16.394Y57.226
X16.191Y57.157
X16.189Y57.155
X16.114Y57.080
X16.039Y57.005
X15.964Y56.930
X15.888Y56.855
X15.813Y56.780
G2X15.288Y56.408I-1.159J1.084
G1X15.137Y56.333
X14.741Y56.174
X14.683Y56.151
X14.461Y56.033
X14.311Y55.958
X13.915Y55.798
G2X13.422Y55.680I-0.613J1.464
G1X13.158Y55.617
X13.022Y55.575
G2X12.482Y55.392I-0.773J1.387
G1X12.181Y55.317
X12.036Y55.272
X11.819Y55.200
G2X11.280Y55.016I-0.773J1.387
G1X11.143Y54.974
X11.004Y54.905
X10.854Y54.830
X10.704Y54.755
X10.553Y54.680
X10.166Y54.523
X10.027Y54.455
X9.877Y54.379
X9.481Y54.220
X9.264Y54.148
X8.880Y53.995
X8.654Y53.920
X8.274Y53.814
X8.128Y53.769
G2X7.515Y53.646I-0.613J1.464
G1X6.763
G2X6.281Y53.721I0.000J1.587
G1X6.162
G2X5.549Y53.845I0.000J1.587
G1X5.153Y54.004
G2X4.627Y54.375I0.634J1.455
G1X4.552Y54.450
G2X4.049Y55.609I1.084J1.159
G1Y55.835
G2X4.124Y56.319I1.588J0.000
G2X4.331Y57.070I1.587J-0.033
G1X4.406Y57.220
G2X4.777Y57.746I1.455J-0.634
G1X4.852Y57.821
X4.928Y57.896
X5.003Y57.971
X5.078Y58.046
X5.363Y58.287
X5.447Y58.403
X5.598Y58.629
X5.748Y58.854
G2X6.055Y59.249I1.391J-0.765
G1X6.066Y59.261
X6.291Y59.561
G2X6.870Y60.139I1.374J-0.796
G1X6.881Y60.151
X6.956Y60.226
X7.032Y60.301
X7.107Y60.376
X7.182Y60.451
X7.257Y60.526
X7.332Y60.601
X7.407Y60.677
X7.483Y60.752
X7.558Y60.827
X7.694Y60.956
X7.440Y60.936
X6.989
X6.651Y60.972
X6.545Y60.953
G2X6.012Y60.860I-0.533J1.495
G1X5.862
G2X5.389Y60.933I0.000J1.588
G2X4.917Y60.617I-1.105J1.140
G1X4.767Y60.542
G2X4.216Y60.352I-0.784J1.380
G2X3.682Y60.259I-0.533J1.495
G1X2.812
G2X2.330Y60.184I-0.483J1.512
G1X1.954
G2X1.420Y60.276I0.000J1.588
G2X0.663Y60.606I0.233J1.570
G1X0.498Y60.710
X0.000
Y0.058
X0.004Y0.004
X0.058Y0.000
G0Z5.080
G0X25.142Y25.668
G1Z-6.000F300.0
G1X25.067Y25.743F1000.0
X24.992Y25.819
X24.917Y25.894
X24.842Y25.969
X24.767Y26.044
G2X24.395Y26.570I1.084J1.159
G1X24.320Y26.720
X24.245Y26.870
G2X24.038Y27.654I1.380J0.784
G1Y28.105
G2X24.161Y28.719I1.588J0.000
G1X24.320Y29.115
X24.395Y29.265
G2X24.767Y29.791I1.455J-0.634
G2X25.292Y30.162I1.159J-1.084
G1X25.601Y30.296
X25.653Y30.332
X25.830Y30.554
G2X26.285Y31.053I1.374J-0.796
G1X26.495Y31.294
G2X26.890Y31.601I1.159J-1.084
G1X27.169Y31.779
X27.397Y32.045
X27.472Y32.120
X27.547Y32.196
X27.622Y32.271
G2X28.205Y32.665I1.159J-1.084
G1X28.219Y32.701
X28.263Y32.847
G2X28.447Y33.387I1.570J-0.233
G2X28.743Y33.980I1.537J-0.397
G1X28.893Y34.205
X29.044Y34.431
X29.055Y34.450
X29.269Y34.807
X29.419Y35.032
X29.430Y35.052
G2X29.801Y35.577I1.455J-0.634
G1X29.877Y35.652
X29.888Y35.664
X30.113Y35.965
X30.246Y36.159
X30.486Y36.488
X30.558Y36.630
G2X30.929Y37.155I1.455J-0.634
G1X31.004Y37.230
X31.079Y37.306
X31.154Y37.381
X31.229Y37.456
X31.304Y37.531
X31.316Y37.543
G2X31.605Y37.907I1.374J-0.796
G2X31.969Y38.196I1.159J-1.084
G1X32.191Y38.373
X32.275Y38.489
X32.286Y38.508
G2X32.657Y39.034I1.455J-0.634
G1X32.732Y39.109
X32.734Y39.111
X32.887Y39.485
X33.102Y39.842
X33.252Y40.067
X33.402Y40.292
G2X33.709Y40.687I1.391J-0.765
G1X33.784Y40.762
X33.859Y40.838
X33.935Y40.913
X34.010Y40.988
X34.085Y41.063
X34.351Y41.291
X34.390Y41.364
X34.465Y41.514
X34.680Y41.871
G2X34.987Y42.265I1.391J-0.765
G1X35.062Y42.341
X35.137Y42.416
X35.212Y42.491
X35.287Y42.566
X35.362Y42.641
X35.438Y42.716
X35.513Y42.791
G2X35.877Y43.081I1.159J-1.084
G1X35.962Y43.157
G2X36.264Y43.543I1.386J-0.773
G1X36.339Y43.618
X36.414Y43.693
X36.490Y43.768
X36.565Y43.844
X36.640Y43.919
X36.715Y43.994
X36.790Y44.069
X36.865Y44.144
X36.941Y44.219
X37.016Y44.294
G2X37.380Y44.584I1.159J-1.084
G1X37.647Y44.790
X37.917Y45.121
G2X38.281Y45.410I1.159J-1.084
G1X38.293Y45.422
G2X38.810Y45.789I1.159J-1.084
G1X38.819Y45.797
G2X39.345Y46.169I1.159J-1.084
G1X39.495Y46.244
G2X40.279Y46.451I0.784J-1.380
G1X40.580
G2X41.739Y45.948I0.000J-1.588
G1X41.815Y45.872
G2X42.318Y44.713I-1.084J-1.159
G1Y43.962
G2X42.111Y43.177I-1.588J0.000
G1X42.035Y43.027
X41.960Y42.877
X41.885Y42.727
X41.810Y42.576
G2X41.439Y42.051I-1.455J0.634
G1X41.364Y41.975
X41.288Y41.900
X41.213Y41.825
X41.202Y41.813
X41.069Y41.619
X40.826Y41.287
G2X40.537Y40.923I-1.374J0.796
G1X40.462Y40.848
X40.387Y40.773
X40.312Y40.698
X40.236Y40.623
X40.161Y40.548
X40.086Y40.472
X40.011Y40.397
X39.936Y40.322
X39.861Y40.247
X39.786Y40.172
X39.710Y40.097
X39.635Y40.022
X39.560Y39.946
X39.485Y39.871
X39.410Y39.796
X39.335Y39.721
X39.259Y39.646
X39.184Y39.571
X39.109Y39.496
X39.034Y39.420
X38.959Y39.345
X38.951Y39.336
X38.740Y38.989
X38.589Y38.763
G2X38.283Y38.368I-1.391J0.765
G2X37.919Y38.079I-1.159J1.084
G1X37.899Y38.061
X37.827Y37.917
G2X37.456Y37.391I-1.455J0.634
G1X37.381Y37.316
X37.370Y37.304
X37.237Y37.110
G2X36.930Y36.715I-1.391J0.765
G1X36.919Y36.703
X36.786Y36.509
G2X36.479Y36.114I-1.391J0.765
G1X36.404Y36.039
X36.321Y35.957
G2X36.017Y35.501I-1.453J0.640
G2X35.480Y34.947I-1.374J0.796
G1X35.422Y34.836
G2X35.051Y34.310I-1.455J0.634
G2X34.687Y34.021I-1.159J1.084
G1X34.675Y34.010
X34.600Y33.935
X34.525Y33.859
X34.411Y33.749
X34.300Y33.634
X34.225Y33.559
X34.149Y33.484
X34.074Y33.409
X33.999Y33.333
X33.850Y33.194
X33.844Y33.183
X33.769Y33.032
X33.694Y32.882
X33.619Y32.732
X33.544Y32.582
X33.329Y32.225
G2X33.022Y31.830I-1.391J0.765
G1X33.011Y31.819
G2X32.722Y31.455I-1.374J0.796
G1X32.646Y31.380
X32.571Y31.304
X32.496Y31.229
X32.421Y31.154
X32.346Y31.079
X32.271Y31.004
G2X31.907Y30.714I-1.159J1.084
G1X31.773Y30.600
X31.594Y30.403
X31.519Y30.328
X31.444Y30.252
X31.369Y30.177
X31.124Y29.964
X30.989Y29.651
X30.913Y29.501
X30.838Y29.350
G2X30.467Y28.825I-1.455J0.634
G1X30.459Y28.816
X30.387Y28.674
X30.312Y28.524
X30.237Y28.373
X30.162Y28.223
X30.087Y28.073
X30.012Y27.922
X29.937Y27.772
X29.861Y27.622
X29.786Y27.472
X29.711Y27.321
X29.636Y27.171
X29.421Y26.815
X29.271Y26.589
X29.260Y26.570
X29.185Y26.419
X29.110Y26.269
G2X28.739Y25.743I-1.455J0.634
G1X28.664Y25.668
G2X28.138Y25.297I-1.159J1.084
G1X27.988Y25.222
G2X27.204Y25.015I-0.784J1.380
G1X26.602
G2X25.818Y25.222I0.000J1.588
G1X25.668Y25.297
G2X25.142Y25.668I0.634J1.455
G0Z5.080
G0X46.688Y46.558
G1Z-6.000F300.0
G1X46.303Y46.405F1000.0
G2X45.690Y46.282I-0.613J1.464
G1X45.314
G2X43.727Y47.869I0.000J1.588
G1Y48.245
G2X44.519Y49.619I1.587J0.000
G1X44.530Y49.630
X44.606Y49.705
X44.720Y49.816
X44.831Y49.930
X44.906Y50.006
X44.981Y50.081
X45.056Y50.156
X45.132Y50.231
X45.207Y50.306
X45.282Y50.381
X45.357Y50.457
X45.432Y50.532
X45.507Y50.607
X45.519Y50.619
G2X45.808Y50.983I1.374J-0.796
G1X45.819Y50.994
G2X46.109Y51.358I1.374J-0.796
G1X46.184Y51.433
X46.259Y51.509
X46.334Y51.584
X46.345Y51.596
G2X46.635Y51.959I1.374J-0.796
G1X46.710Y52.035
X46.785Y52.110
X46.860Y52.185
X46.935Y52.260
X46.946Y52.272
G2X47.236Y52.636I1.374J-0.796
G1X47.247Y52.648
G2X47.536Y53.012I1.374J-0.796
G1X47.612Y53.087
X47.687Y53.162
G2X48.082Y53.469I1.159J-1.084
G1X48.438Y53.683
X48.457Y53.694
G2X49.214Y54.024I0.990J-1.241
G2X49.671Y54.114I0.533J-1.495
G1X50.078Y54.243
X50.166Y54.284
G2X50.950Y54.492I0.784J-1.380
G1X51.112
X51.293Y54.585
X51.444Y54.660
G2X52.228Y54.867I0.784J-1.380
G1X52.239
G2X52.667Y55.045I0.815J-1.362
G2X53.280Y55.168I0.613J-1.464
G1X53.580
G2X54.365Y54.961I0.000J-1.587
G1X54.515Y54.886
G2X55.337Y54.064I-0.634J-1.455
G1X55.412Y53.914
G2X55.619Y53.130I-1.380J-0.784
G1Y52.904
G2X55.412Y52.120I-1.587J0.000
G2X55.041Y51.594I-1.455J0.634
G1X54.965Y51.519
X54.890Y51.444
X54.815Y51.369
X54.740Y51.294
G2X53.869Y50.817I-1.159J1.084
G1X53.538Y50.622
G2X52.754Y50.415I-0.784J1.380
G1X52.427
G2X51.789Y50.087I-1.026J1.212
G1X51.564Y50.012
X51.344Y49.938
X51.145Y49.802
X51.133Y49.791
X51.058Y49.716
X50.983Y49.641
X50.907Y49.565
X50.896Y49.554
G2X50.607Y49.190I-1.374J0.796
G1X50.596Y49.178
G2X50.306Y48.814I-1.374J0.796
G1X50.295Y48.802
G2X50.006Y48.438I-1.374J0.796
G2X49.642Y48.149I-1.159J1.084
G1X49.630Y48.138
G2X49.266Y47.848I-1.159J1.084
G1X49.254Y47.837
X49.179Y47.762
G2X48.653Y47.391I-1.159J1.084
G1X48.503Y47.316
G2X47.796Y47.110I-0.784J1.380
G1X47.752Y47.090
X47.601Y47.015
X47.451Y46.940
X47.432Y46.929
X47.075Y46.714
X46.688Y46.558
G0Z5.080
G0X47.901Y70.607
G1Z-6.000F300.0
G2X47.538Y70.317I-1.159J1.084F1000.0
G1X47.526Y70.306
G2X47.131Y69.999I-1.159J1.084
G1X46.775Y69.785
X46.755Y69.774
X46.561Y69.641
X46.549Y69.630
X46.474Y69.555
X46.399Y69.480
G2X46.004Y69.173I-1.159J1.084
G1X45.778Y69.022
X45.422Y68.808
X45.035Y68.651
X44.896Y68.582
X44.746Y68.507
X44.595Y68.432
X44.445Y68.357
X44.426Y68.346
X44.200Y68.196
X43.975Y68.045
X43.749Y67.895
X43.393Y67.681
X43.243Y67.605
X42.978Y67.486
X42.622Y67.219
X42.397Y67.069
X42.040Y66.854
X41.890Y66.779
X41.740Y66.704
X41.353Y66.547
X41.345Y66.543
X41.119Y66.392
X40.763Y66.178
X40.613Y66.103
X40.462Y66.027
X40.312Y65.952
X40.162Y65.877
X40.011Y65.802
X39.861Y65.727
X39.711Y65.652
X39.560Y65.576
X39.332Y65.470
X39.271Y65.433
X39.259Y65.422
G2X38.896Y65.132I-1.159J1.084
G1X38.564Y64.889
X38.339Y64.739
X38.113Y64.589
X37.757Y64.374
X37.607Y64.299
X37.587Y64.288
X37.393Y64.155
X37.061Y63.912
X36.836Y63.762
X36.479Y63.547
X36.329Y63.472
X36.310Y63.461
X36.084Y63.311
X35.728Y63.097
X35.578Y63.021
X35.427Y62.946
X35.408Y62.935
X35.052Y62.721
X35.032Y62.710
X34.676Y62.495
X34.526Y62.420
X34.375Y62.345
X33.988Y62.188
X33.849Y62.120
X33.462Y61.963
X33.323Y61.894
X33.173Y61.819
X33.153Y61.808
X32.797Y61.594
X32.647Y61.518
X32.251Y61.359
X32.193Y61.337
X31.970Y61.218
X31.820Y61.143
X31.801Y61.132
X31.444Y60.917
X31.294Y60.842
X30.898Y60.683
G2X30.436Y60.567I-0.613J1.464
G1X30.373Y60.531
X30.147Y60.380
G2X29.545Y60.082I-0.990J1.241
G1X29.320Y60.007
X28.939Y59.901
X28.677Y59.832
X28.589Y59.790
X28.439Y59.715
G2X27.887Y59.525I-0.784J1.380
G1X27.742Y59.481
X27.361Y59.375
X27.061Y59.299
G2X26.527Y59.207I-0.533J1.495
G1X26.484
X26.398Y59.182
X26.259Y59.114
X26.109Y59.039
G2X25.558Y58.849I-0.784J1.380
G1X25.145Y58.761
X24.881Y58.698
G2X24.348Y58.606I-0.533J1.495
G1X23.296
G2X22.512Y58.813I0.000J1.587
G1X22.361Y58.888
X22.211Y58.963
X22.061Y59.039
G2X21.535Y59.410I0.634J1.455
G2X21.164Y59.935I1.084J1.159
G1X21.089Y60.086
G2X20.882Y60.870I1.380J0.784
G1Y61.095
G2X21.089Y61.879I1.588J0.000
G2X21.460Y62.405I1.455J-0.634
G1X21.535Y62.480
G2X22.424Y62.960I1.159J-1.084
G1X22.512Y63.002
X22.908Y63.161
X23.288Y63.267
X23.434Y63.311
X23.659Y63.386
G2X24.122Y63.502I0.613J-1.464
G1X24.315Y63.603
X24.335Y63.614
X24.691Y63.828
X24.841Y63.903
X24.992Y63.979
X25.142Y64.054
X25.292Y64.129
X25.443Y64.204
X25.830Y64.361
X25.838Y64.365
X26.194Y64.580
X26.344Y64.655
X26.495Y64.730
G2X27.046Y64.920I0.784J-1.380
G1X27.458Y65.008
X27.567Y65.039
X27.625Y65.062
X27.847Y65.181
G2X28.494Y65.382I0.784J-1.380
G1X28.524Y65.411
X28.599Y65.486
G2X28.994Y65.793I1.159J-1.084
G1X29.219Y65.943
X29.576Y66.158
G2X30.114Y66.346I0.784J-1.380
G2X30.728Y66.573I0.846J-1.343
G1X31.029Y66.648
X31.174Y66.693
G2X31.666Y66.811I0.613J-1.464
G2X32.163Y66.891I0.497J-1.508
G1X32.190
X32.420Y67.053
X32.751Y67.296
X33.108Y67.511
X33.258Y67.586
X33.408Y67.661
X33.637Y67.768
G2X34.096Y67.968I0.856J-1.337
G1X34.235Y68.037
X34.486Y68.151
X34.605Y68.323
G2X34.912Y68.717I1.391J-0.765
G1X34.987Y68.793
X35.062Y68.868
X35.137Y68.943
X35.212Y69.018
X35.287Y69.093
X35.362Y69.168
X35.438Y69.243
X35.513Y69.319
X35.588Y69.394
X35.663Y69.469
G2X36.189Y69.840I1.159J-1.084
G1X36.339Y69.915
G2X36.834Y70.096I0.784J-1.380
G1X37.157Y70.287
X37.166Y70.296
X37.241Y70.371
X37.316Y70.446
G2X37.680Y70.735I1.159J-1.084
G1X37.692Y70.746
G2X38.087Y71.053I1.159J-1.084
G1X38.443Y71.268
X38.593Y71.343
G2X39.145Y71.533I0.784J-1.380
G1X39.433Y71.606
X39.515Y71.655
X39.871Y71.869
X39.890Y71.880
G2X40.487Y72.177I0.990J-1.241
G1X40.717Y72.331
X41.073Y72.545
X41.093Y72.556
X41.449Y72.771
X41.599Y72.846
X41.750Y72.921
X41.769Y72.932
X42.125Y73.147
X42.276Y73.222
X42.650Y73.375
X42.652Y73.377
X42.727Y73.452
X42.802Y73.527
X42.877Y73.602
G2X43.272Y73.909I1.159J-1.084
G1X43.628Y74.124
X43.843Y74.225
X44.080Y74.504
X44.155Y74.579
X44.230Y74.654
X44.305Y74.729
G2X44.669Y75.019I1.159J-1.084
G1X44.854Y75.171
Y75.749
G2X44.934Y76.246I1.588J0.000
G2X45.052Y76.738I1.583J-0.121
G1X45.127Y76.964
X45.172Y77.109
X45.247Y77.410
G2X45.437Y77.961I1.570J-0.233
G2X45.808Y78.487I1.455J-0.634
G1X45.883Y78.562
X45.958Y78.637
X45.960Y78.639
X46.113Y79.013
X46.133Y79.058
G2X46.224Y79.514I1.586J-0.077
G2X46.414Y80.065I1.570J-0.233
G1X46.489Y80.215
X46.703Y80.572
X46.708Y80.580
X46.723Y80.634
G2X46.657Y81.085I1.522J0.451
G1Y81.235
G2X46.733Y81.718I1.588J0.000
G1Y81.761
X46.736Y81.868
X46.675Y82.129
X46.599Y82.430
X46.524Y82.730
G2X46.432Y83.264I1.495J0.533
G1Y83.533
G2X46.357Y84.015I1.512J0.483
G1Y85.143
G2X46.564Y85.927I1.588J0.000
G1X46.639Y86.077
G2X47.010Y86.603I1.455J-0.634
G1X47.085Y86.678
X47.161Y86.753
X47.236Y86.828
G2X48.007Y87.283I1.159J-1.084
G2X48.621Y87.406I0.613J-1.464
G1X49.222
G2X49.835Y87.283I0.000J-1.587
G2X50.437Y86.985I-0.388J-1.539
G2X51.064Y86.358I-0.765J-1.391
G1X51.255Y86.054
X51.401
G2X52.561Y85.551I0.000J-1.588
G1X52.636Y85.475
X52.711Y85.400
X52.786Y85.325
X52.861Y85.250
G2X53.347Y84.323I-1.084J-1.159
G2X53.440Y83.790I-1.495J-0.533
G1Y82.888
G2X53.360Y82.391I-1.587J0.000
G1X53.285Y82.015
X53.214Y81.654
Y81.310
G2X53.134Y80.813I-1.588J0.000
G2X52.932Y80.150I-1.583J0.121
G1X52.857Y80.000
X52.642Y79.644
X52.517Y79.450
G2X52.613Y78.905I-1.491J-0.545
G1Y78.304
G2X52.412Y77.531I-1.587J0.000
G1X52.255Y77.144
X52.041Y76.788
X52.030Y76.769
X51.955Y76.618
X51.880Y76.468
X51.805Y76.318
G2X51.546Y75.909I-1.455J0.634
G1X51.485Y75.641
G2X51.285Y74.901I-1.587J0.033
G2X50.989Y74.308I-1.537J0.397
G1X50.746Y73.977
X50.613Y73.782
X50.602Y73.763
X50.527Y73.612
X50.452Y73.462
X50.377Y73.312
X50.162Y72.955
G2X49.855Y72.561I-1.391J0.765
G1X49.780Y72.485
X49.705Y72.410
X49.630Y72.335
X49.555Y72.260
X49.480Y72.185
X49.404Y72.110
X49.329Y72.035
X49.254Y71.959
X49.179Y71.884
X49.104Y71.809
X49.029Y71.734
X48.954Y71.659
X48.878Y71.584
X48.803Y71.509
X48.728Y71.433
X48.653Y71.358
X48.578Y71.283
X48.503Y71.208
X48.428Y71.133
X48.352Y71.058
X48.277Y70.983
X48.202Y70.907
X48.127Y70.832
X48.052Y70.757
X47.977Y70.682
X47.901Y70.607
G0Z5.080
G0X63.460Y0.001
G1Z-7.000F300.0
G1X0.040F1000.0
X0.004Y0.004
X0.000Y0.058
Y2.224
X63.500
Y4.446
X0.000
Y6.669
X63.500
Y8.891
X0.000
Y11.114
X7.743
X7.738Y11.122
X7.637Y11.317
X7.563Y11.523
X7.520Y11.736
X7.505Y11.949
Y12.324
X7.520Y12.537
X7.563Y12.750
X7.637Y12.956
X7.738Y13.151
X7.863Y13.328
X7.871Y13.336
X0.000
Y15.559
X9.636
X9.744Y15.660
X9.921Y15.785
X10.112Y15.884
X10.224Y15.941
X10.345Y16.112
X10.488Y16.264
X10.564Y16.339
X10.639Y16.415
X10.674Y16.451
X10.742Y16.617
X10.829Y16.775
X10.933Y16.921
X10.944Y16.941
X11.043Y17.132
X11.168Y17.309
X11.315Y17.467
X11.390Y17.542
X11.465Y17.617
X11.541Y17.692
X11.616Y17.767
X11.630Y17.781
X0.000
Y20.004
X13.639
X13.672Y20.035
X13.873Y20.169
X13.976Y20.328
X14.097Y20.474
X14.168Y20.682
X14.269Y20.881
X14.396Y21.063
X14.546Y21.224
X14.622Y21.299
X14.697Y21.374
X14.772Y21.449
X14.847Y21.525
X15.005Y21.672
X15.181Y21.796
X15.373Y21.896
X15.523Y21.971
X15.673Y22.046
X15.873Y22.142
X16.086Y22.209
X16.188Y22.226
G0Z5.080
G0X11.569Y11.114
G1Z-7.000F300.0
G1X63.500F1000.0
Y13.336
X14.152
X14.160Y13.344
X14.235Y13.419
X14.310Y13.494
X14.386Y13.570
X14.461Y13.645
X14.536Y13.720
X14.611Y13.795
X14.686Y13.870
X14.802Y13.991
X14.905Y14.123
X14.993Y14.265
X15.126Y14.460
X15.137Y14.471
X15.212Y14.546
X15.287Y14.622
X15.362Y14.697
X15.478Y14.817
X15.581Y14.950
X15.669Y15.092
X15.786Y15.259
X15.880Y15.439
X15.888Y15.448
X15.964Y15.523
X15.996Y15.559
X63.500
Y17.781
X17.293
X17.318Y17.864
X17.467Y18.003
X17.542Y18.078
X17.617Y18.154
X17.692Y18.229
X17.767Y18.304
X17.842Y18.379
X17.917Y18.454
X18.076Y18.625
X18.207Y18.818
X18.338Y18.974
X18.448Y19.147
X18.536Y19.333
X18.598Y19.526
X18.679Y19.777
X18.878Y19.825
X19.071Y19.898
X19.254Y19.997
X19.264Y20.004
X63.500
Y22.226
X20.220
X20.210Y22.381
X20.166Y22.594
X20.093Y22.801
X19.992Y22.995
X19.867Y23.172
X19.721Y23.328
X19.646Y23.403
X19.490Y23.549
X19.313Y23.674
X19.118Y23.775
X18.912Y23.848
X18.699Y23.892
X18.486Y23.906
X18.111
X17.898Y23.892
X17.685Y23.848
X17.479Y23.775
X17.284Y23.674
X17.107Y23.549
X16.951Y23.403
X16.876Y23.328
X16.801Y23.253
X16.647Y23.087
X16.516Y22.897
X16.414Y22.689
X16.343Y22.470
X16.305Y22.246
X16.188Y22.226
X0.000
Y24.449
G0Z5.080
G0X16.188Y22.226
G1Z-7.000F300.0
G1X0.000F1000.0
Y24.449
X20.168
X20.109Y24.470
X19.914Y24.571
X19.737Y24.696
X19.581Y24.842
X19.506Y24.917
X19.361Y25.073
X19.235Y25.250
X19.134Y25.444
X19.061Y25.651
X19.017Y25.864
X19.003Y26.076
Y26.671
G0Z5.080
G0X0.000Y24.449
G1Z-7.000F300.0
G1X20.168F1000.0
X20.315Y24.397
X20.528Y24.353
X20.741Y24.339
X20.966
X21.170Y24.352
X21.372Y24.391
X21.544Y24.449
X25.490
G0Z5.080
G0X27.792
G1Z-7.000F300.0
G1X63.500F1000.0
Y26.671
X29.854
X29.900Y26.735
X30.012Y26.945
X30.118Y27.174
X30.237Y27.396
X30.312Y27.547
X30.405Y27.739
X30.471Y27.943
X30.494Y28.001
X30.549Y28.092
X30.665Y28.259
X30.759Y28.440
X30.768Y28.449
X30.884Y28.569
X30.987Y28.702
X31.075Y28.844
X31.110Y28.894
X63.500
Y31.116
X32.918
X32.936Y31.142
X32.947Y31.154
X33.022Y31.229
X33.180Y31.401
X33.312Y31.593
X33.323Y31.605
X33.398Y31.680
X33.473Y31.755
X33.589Y31.876
X33.692Y32.008
X33.780Y32.150
X33.906Y32.333
X34.006Y32.533
X34.076Y32.743
X34.141Y32.874
X34.149Y32.883
X34.225Y32.958
X34.300Y33.033
X34.375Y33.108
X34.450Y33.183
X34.525Y33.258
X34.600Y33.333
X34.605Y33.339
X63.500
Y35.561
X36.584
X36.780Y35.738
X36.855Y35.813
X37.002Y35.971
X37.127Y36.148
X37.226Y36.339
X37.237Y36.358
X37.370Y36.553
X37.488Y36.692
X37.590Y36.844
X37.673Y37.007
X37.681Y37.016
X37.757Y37.091
X37.832Y37.166
X37.907Y37.241
X37.982Y37.316
X38.127Y37.471
X38.251Y37.645
X38.323Y37.784
X60.292
X60.276Y37.792
X60.105Y37.911
X59.963Y37.999
X59.831Y38.102
X59.710Y38.218
X59.594Y38.338
X59.492Y38.471
X59.403Y38.613
X59.284Y38.784
X59.189Y38.969
X59.103Y39.144
X59.039Y39.330
X58.999Y39.520
X58.924Y39.821
X58.873Y39.995
X58.871Y40.006
X40.221
X40.236Y40.022
X40.312Y40.097
X40.387Y40.172
X40.462Y40.247
X40.537Y40.322
X40.612Y40.397
X40.687Y40.472
X40.845Y40.644
X40.977Y40.836
X41.098Y40.980
X41.202Y41.137
X41.324Y41.281
X41.428Y41.438
X41.439Y41.449
X41.514Y41.525
X41.672Y41.696
X41.803Y41.889
X41.815Y41.900
X41.973Y42.072
X42.080Y42.229
X59.230
X59.335Y42.341
X59.410Y42.416
X59.485Y42.491
X59.560Y42.566
X59.635Y42.641
X59.807Y42.799
X59.999Y42.931
X60.011Y42.942
X60.131Y43.058
X60.264Y43.160
X60.406Y43.249
X60.580Y43.369
X60.771Y43.467
X60.974Y43.538
X61.185Y43.581
X61.396Y43.595
X61.772
X61.983Y43.581
X62.193Y43.538
X62.397Y43.467
X62.588Y43.369
X62.762Y43.249
X62.949Y43.128
X63.120Y42.980
X63.267Y42.810
X63.388Y42.622
X63.500Y42.463
Y44.451
X43.915
X43.919Y44.455
X44.077Y44.627
X44.208Y44.819
X44.219Y44.831
X44.294Y44.906
X44.370Y44.981
X44.445Y45.056
X44.658Y45.301
X44.800Y45.353
X44.964Y45.404
X45.239Y45.380
X45.540
X45.749Y45.394
X45.955Y45.435
X46.153Y45.503
X46.356Y45.569
X46.549Y45.662
X46.734Y45.758
X46.905Y45.877
X47.077Y45.986
X47.234Y46.117
X47.415Y46.211
X47.582Y46.328
X47.601Y46.339
X47.786Y46.434
X47.958Y46.553
X48.039Y46.601
X48.226Y46.642
X48.316Y46.674
X63.500
Y48.896
X50.976
X51.018Y48.946
X51.122Y49.103
X51.133Y49.114
X51.208Y49.190
X51.283Y49.265
X51.358Y49.340
X51.433Y49.415
X51.470Y49.450
X51.564Y49.486
X51.767Y49.552
X51.960Y49.645
X52.145Y49.741
X52.316Y49.860
X52.336Y49.871
X52.376Y49.889
X52.378
X52.453
X52.698Y49.908
X52.937Y49.964
X53.132Y49.980
X53.325Y50.021
X53.512Y50.085
X53.688Y50.171
X53.981Y50.337
X54.119Y50.388
X54.322Y50.454
X54.515Y50.547
X54.706Y50.646
X54.883Y50.771
X55.041Y50.918
X55.116Y50.993
X55.191Y51.068
X55.241Y51.119
X63.500
Y53.341
X58.007
G0Z5.080
G0X62.724Y37.784
G1Z-7.000F300.0
G1X63.500F1000.0
G0Z5.080
G0X19.003Y26.671
G1Z-7.000F300.0
G1X0.000F1000.0
Y28.894
X19.552
X19.606Y28.999
X19.725Y29.171
X19.813Y29.313
X19.916Y29.445
X20.032Y29.565
X20.107Y29.641
X20.183Y29.716
X20.258Y29.791
X20.415Y29.938
X20.592Y30.063
X20.783Y30.162
X20.934Y30.237
X21.084Y30.312
X21.234Y30.387
X21.385Y30.463
X21.568Y30.552
X21.763Y30.617
X21.965Y30.657
X22.169Y30.670
X22.695
X22.906Y30.656
X23.116Y30.613
X23.320Y30.542
X23.511Y30.444
X23.685Y30.323
X23.881Y30.196
X24.056Y30.041
X24.115Y30.051
X24.289Y30.102
X24.468Y30.133
X24.649Y30.144
X24.667
X24.812Y30.269
X24.972Y30.376
X25.142Y30.463
X25.292Y30.538
X25.365Y30.577
X25.593Y30.843
X25.668Y30.918
X25.743Y30.993
X25.819Y31.068
X25.867Y31.116
X0.000
Y33.339
X27.973
X28.002Y33.398
X28.078Y33.549
X28.153Y33.699
X28.248Y33.884
X28.367Y34.055
X28.518Y34.281
X28.606Y34.423
X28.709Y34.555
X28.825Y34.675
X28.833Y34.684
X28.927Y34.865
X29.044Y35.032
X29.194Y35.258
X29.205Y35.277
X29.304Y35.468
X29.370Y35.561
X0.000
Y37.784
X31.053
X31.070Y37.809
X31.229Y37.982
X31.304Y38.057
X31.380Y38.132
X31.455Y38.207
X31.530Y38.283
X31.605Y38.358
X31.680Y38.433
X31.858Y38.596
X32.059Y38.731
X32.060Y38.734
X32.136Y38.884
X32.235Y39.075
X32.360Y39.252
X32.507Y39.410
X32.582Y39.485
X32.590Y39.494
X32.662Y39.636
X32.757Y39.821
X32.876Y39.992
X32.884Y40.006
X0.000
Y42.229
X34.565
X34.678Y42.395
X34.836Y42.566
X34.912Y42.641
X34.987Y42.716
X35.158Y42.874
X35.351Y43.006
X35.362Y43.017
X35.438Y43.092
X35.513Y43.167
X35.588Y43.242
X35.737Y43.382
X35.882Y43.599
X35.970Y43.741
X36.073Y43.873
X36.189Y43.994
X36.264Y44.069
X36.339Y44.144
X36.511Y44.302
X36.703Y44.434
X36.715Y44.445
X36.722Y44.451
X0.000
Y46.674
X39.105
X39.176Y46.734
X39.333Y46.838
X39.345Y46.849
X39.356Y46.861
X39.488Y47.054
X39.646Y47.225
X39.817Y47.383
X40.010Y47.515
X40.022Y47.526
X40.097Y47.601
X40.172Y47.676
X40.247Y47.751
X40.322Y47.826
X40.397Y47.901
X40.518Y48.017
X40.650Y48.120
X40.792Y48.208
X41.018Y48.359
X41.212Y48.492
X41.224Y48.503
X41.299Y48.578
X41.420Y48.694
X41.552Y48.797
X41.694Y48.885
X41.711Y48.896
X0.000
Y51.119
X45.381
X45.496Y51.197
X45.507Y51.208
X45.583Y51.283
X45.658Y51.358
X45.733Y51.433
X45.808Y51.509
X45.883Y51.584
X45.894Y51.596
X46.026Y51.788
X46.184Y51.959
X46.259Y52.035
X46.334Y52.110
X46.409Y52.185
X46.484Y52.260
X46.559Y52.335
X46.635Y52.410
X46.646Y52.422
X46.750Y52.579
X46.871Y52.723
X47.003Y52.915
X47.161Y53.087
X47.236Y53.162
X47.311Y53.237
X47.419Y53.341
X8.772
X8.785Y53.348
X8.956Y53.467
X8.975Y53.478
X9.126Y53.553
X9.264Y53.621
X9.457Y53.685
X9.640Y53.772
X9.839Y53.837
X10.027Y53.929
X10.166Y53.997
X10.365Y54.063
X10.553Y54.154
X10.704Y54.229
X10.854Y54.304
X11.004Y54.379
X11.176Y54.467
X11.336Y54.574
X11.660Y54.671
X11.886Y54.746
X12.089Y54.813
X12.282Y54.905
X12.341Y54.933
X12.568Y54.973
X12.787Y55.047
X13.013Y55.122
X13.158Y55.166
X13.408Y55.224
X13.451
X13.660Y55.238
X13.867Y55.280
X14.065Y55.348
X14.254Y55.408
X14.435Y55.492
X14.549Y55.564
X52.797
X52.934Y55.596
X53.145Y55.685
X53.417Y55.873
X53.588Y55.992
X53.773Y56.088
X53.915Y56.159
X53.924Y56.168
X53.999Y56.243
X54.074Y56.318
X54.149Y56.393
X54.270Y56.509
X54.402Y56.612
X54.544Y56.700
X54.715Y56.819
X54.901Y56.915
X55.051Y56.990
X55.214Y57.070
X55.415Y57.209
X55.427Y57.220
X55.502Y57.295
X55.666Y57.447
X55.851Y57.576
X56.053Y57.677
X56.265Y57.748
X56.347Y57.786
X19.469
X19.612Y57.860
X19.789Y57.985
X19.946Y58.132
X19.950Y58.135
X20.156Y58.094
X20.365Y58.080
X21.192
X21.395Y58.093
X21.597Y58.133
X21.792Y58.198
X21.976Y58.287
X22.004Y58.300
X22.348Y58.235
X22.510Y58.191
X22.677Y58.164
X22.845Y58.155
X23.146
X23.390Y58.174
X23.628Y58.230
X23.897
X24.065Y58.239
X24.232Y58.266
X24.394Y58.310
X24.577Y58.335
X24.755Y58.381
X24.799
X24.967Y58.389
X25.133Y58.416
X25.296Y58.460
X25.464Y58.482
X25.629Y58.522
X25.788Y58.579
X25.991Y58.645
X26.184Y58.738
X26.334Y58.813
X26.422Y58.855
X26.634Y58.907
X26.678
X26.858Y58.917
X27.037Y58.948
X27.211Y58.999
X27.405Y59.040
X27.591Y59.105
X27.737Y59.149
X27.931Y59.190
X28.117Y59.255
X28.321Y59.321
X28.514Y59.414
X28.726Y59.527
X28.978Y59.588
X29.203Y59.621
X29.423Y59.687
X29.629Y59.784
X29.840Y59.854
X30.040Y59.954
X30.120Y60.009
X63.500
Y62.231
X34.749
X34.826Y62.270
X35.011Y62.366
X35.182Y62.485
X35.202Y62.495
X35.352Y62.571
X35.502Y62.646
X35.653Y62.721
X35.803Y62.796
X35.988Y62.892
X36.159Y63.011
X36.385Y63.161
X36.404Y63.172
X36.555Y63.247
X36.740Y63.342
X36.911Y63.461
X36.930Y63.472
X37.115Y63.568
X37.287Y63.687
X37.512Y63.837
X37.737Y63.987
X37.963Y64.138
X38.188Y64.288
X38.208Y64.299
X38.373Y64.383
X38.480Y64.454
X63.500
Y66.676
X42.373
X42.397Y66.693
X42.622Y66.843
X42.642Y66.854
X42.806Y66.937
X42.960Y67.039
X43.101Y67.158
X43.243Y67.230
X43.393Y67.305
X43.578Y67.400
X43.749Y67.519
X43.975Y67.670
X44.200Y67.820
X44.220Y67.831
X44.384Y67.914
X44.538Y68.016
X44.679Y68.135
X44.821Y68.207
X44.960Y68.275
X45.158Y68.341
X45.347Y68.432
X45.497Y68.507
X45.682Y68.603
X45.853Y68.722
X45.873Y68.733
X46.064Y68.832
X46.159Y68.899
X63.500
Y71.121
X48.892
X49.008Y71.200
X49.179Y71.358
X49.254Y71.433
X49.399Y71.589
X49.555Y71.734
X49.630Y71.809
X49.705Y71.884
X49.780Y71.959
X49.938Y72.131
X50.070Y72.323
X50.081Y72.335
X50.156Y72.410
X50.272Y72.531
X50.375Y72.663
X50.463Y72.805
X50.582Y72.976
X50.677Y73.161
X50.753Y73.312
X50.769Y73.344
X63.500
Y75.566
X51.912
X51.929Y75.673
X52.030Y75.867
X52.105Y76.017
X52.180Y76.167
X52.255Y76.318
X52.327Y76.460
X52.447Y76.602
X52.550Y76.757
X52.670Y76.899
X52.773Y77.054
X52.857Y77.219
X52.868Y77.239
X52.988Y77.413
X53.086Y77.604
X53.151Y77.789
X63.500
Y80.011
X53.490
X53.542Y80.171
X53.610Y80.369
X53.651Y80.575
X53.665Y80.784
Y81.504
X53.719Y81.726
X53.740Y81.954
X53.786Y82.133
X53.800Y82.234
X63.500
Y84.456
X54.037
X54.030Y84.572
X53.999Y84.751
X53.948Y84.925
X53.905Y85.128
X53.834Y85.325
X53.738Y85.511
X53.619Y85.682
X53.531Y85.824
X53.428Y85.956
X53.312Y86.077
X53.115Y86.255
X52.936Y86.452
X52.779Y86.599
X52.668Y86.678
X63.500
Y88.842
X63.496Y88.896
X63.460Y88.899
X44.906
G0Z5.080
G0X3.186Y53.341
G1Z-7.000F300.0
G1X0.000F1000.0
Y55.564
X2.494
X2.527Y55.730
X2.599Y55.934
X2.696Y56.125
X2.817Y56.299
X2.967Y56.524
X3.055Y56.666
X3.158Y56.799
X3.274Y56.919
X3.446Y57.077
X3.638Y57.209
X3.650Y57.220
X3.725Y57.295
X3.736Y57.307
X3.840Y57.464
X3.962Y57.607
X4.084Y57.786
X0.000
Y59.658
X0.301
X0.505Y59.671
X0.707Y59.711
X0.902Y59.776
X1.096Y59.711
X1.298Y59.671
X1.503Y59.658
X2.555
X2.736Y59.668
X2.915Y59.699
X3.089Y59.750
X3.338Y59.808
X3.983
X4.164Y59.819
X4.343Y59.850
X4.516Y59.901
X4.719Y59.945
X4.899Y60.009
X6.063
G0Z5.080
G0X0.671Y71.121
G1Z-7.000F300.0
G1X0.000F1000.0
Y73.344
X4.043
X4.092Y73.368
X4.101Y73.377
X4.176Y73.452
X4.251Y73.527
X4.326Y73.602
X4.484Y73.749
X4.661Y73.874
X4.852Y73.973
X4.963Y74.031
X5.085Y74.201
X5.228Y74.354
X5.303Y74.429
X5.378Y74.504
X5.499Y74.620
X5.631Y74.723
X5.773Y74.811
X5.966Y74.943
X6.177Y75.045
X6.269Y75.202
X6.380Y75.349
X6.506Y75.481
X6.581Y75.556
X6.591Y75.566
X0.000
Y76.040
X0.225
X0.434Y76.054
X0.641Y76.096
X0.839Y76.164
X1.042Y76.230
X1.235Y76.323
X1.374Y76.391
X1.590Y76.464
X1.736Y76.508
X1.927Y76.549
X2.112Y76.613
X2.287Y76.698
X2.437Y76.774
X2.525Y76.815
X2.738Y76.867
X2.936Y76.884
X3.131Y76.925
X3.319Y76.990
X3.544Y77.065
X3.748Y77.131
X3.940Y77.224
X4.079Y77.293
X4.265Y77.354
X4.443Y77.437
X4.609Y77.541
X4.667Y77.560
X4.857Y77.601
X5.043Y77.665
X5.218Y77.750
X5.295Y77.789
X9.053
G0Z5.080
G0X0.000Y82.234
G1Z-7.000F300.0
G1X0.995F1000.0
X1.040Y82.248
X1.265Y82.323
X1.452Y82.388
X1.646Y82.429
X1.791Y82.474
X2.017Y82.549
X2.242Y82.624
X2.402Y82.681
X2.567Y82.721
X2.734Y82.743
X2.998Y82.805
X3.135Y82.847
X3.322Y82.936
X3.520Y83.000
X3.577Y83.023
X3.792Y83.138
X3.932Y83.257
X4.086Y83.359
X4.251Y83.442
X4.401Y83.517
X4.421Y83.528
X4.606Y83.655
X4.809Y83.756
X5.023Y83.826
X5.239Y83.899
X5.378Y83.968
X5.588Y84.068
X5.811Y84.136
X6.041Y84.170
X6.254Y84.225
X6.472Y84.249
X6.620Y84.328
X6.776Y84.390
X6.937Y84.436
X6.972Y84.456
X0.000
Y86.678
G0Z5.080
G0X14.869Y84.456
G1Z-7.000F300.0
G1X13.169F1000.0
G0Z5.080
G0X0.000Y86.678
G1Z-7.000F300.0
G1X24.877F1000.0
X24.880Y86.715
X24.920Y86.911
X24.985Y87.101
X25.072Y87.279
X25.167Y87.465
X25.286Y87.636
X25.374Y87.778
X25.477Y87.910
X25.593Y88.030
X25.668Y88.106
X25.789Y88.222
X25.921Y88.324
X26.063Y88.413
X26.289Y88.563
X26.483Y88.696
X26.747Y88.899
X0.040
G0Z5.080
G0X17.858Y64.454
G1Z-7.000F300.0
G1X25.266F1000.0
X25.367Y64.505
X25.577Y64.604
X25.799Y64.672
